%
O02002
(T1  D=12.7 CR=0. - ZMIN=-20.7 - flat end mill)
(T7  D=6.35 CR=0. TAPER=118deg - ZMIN=-13. - drill)
(T9  D=76.2 CR=0. - ZMIN=-1. - face mill)
N10 G90 G94 G17
N15 G21
N20 M25 G49
(Face1)
N30 T9 M6
(FACE MILL 10 INSERTS)
N35 T1
N40 S2200 M3
N45 G54
N50 M8
N60 G0 X146.512 Y-1.148
N65 G43 Z15. H9
N70 Z6.62
N75 G18 G3 X138.892 Z-1. I-7.62 K0. F1000.
N80 G1 X135.11
N85 X-38.11 F1350.
N90 G17 G2 Y35.272 I0. J18.21
N95 G1 X135.11
N100 G18 G2 X142.73 Z6.62 I0. K7.62 F1000.
N105 G0 Z15.
N110 G17
N115 M25 G49
(Adaptive1)
N125 M9
N130 M1
N135 T1 M6
(END MILL 1/2" - 12.7 mm)
N140 T7
N145 S4586 M3
N150 G54
N155 M8
N165 G0 X-11.046 Y-9.404
N170 G43 Z15. H1
N175 Z5.
N180 Z-0.26
N185 G1 Z-1.53 F800.
N190 X-11.039 Y-9.4 Z-1.672
N195 X-11.018 Y-9.387 Z-1.813
N200 X-10.984 Y-9.367 Z-1.949
N205 X-10.937 Y-9.34 Z-2.081
N210 X-10.878 Y-9.304 Z-2.206
N215 X-10.807 Y-9.262 Z-2.322
N220 X-10.726 Y-9.214 Z-2.428
N225 X-10.634 Y-9.16 Z-2.523
N230 X-10.534 Y-9.101 Z-2.605
N235 X-10.427 Y-9.037 Z-2.674
N240 X-10.314 Y-8.97 Z-2.729
N245 X-10.196 Y-8.901 Z-2.768
N250 X-10.075 Y-8.829 Z-2.792
N255 X-9.953 Y-8.757 Z-2.8
N260 G3 X-4.361 Y-4.571 I-16.52 J27.898
N265 G1 X-4.271 Y-4.481 F2201.28
N270 X-3.885 Y-3.851
N275 X-3.473 Y-3.039
N280 X-3.038 Y-1.979
N285 X-2.636 Y-0.72
N290 X-2.325 Y0.566
N295 X-2.241 Y1.016
N300 X-2.191 Y1.492
N305 X-2.219 Y1.969
N310 X-2.323 Y2.436
N315 X-2.502 Y2.88
N320 X-2.749 Y3.29
N325 X-3.059 Y3.654
N330 X-3.633 Y4.229
N335 X-3.78 Y4.377
N340 X-3.992 Y4.609
N345 X-4.16 Y4.817
N350 X-4.568 Y5.37
N355 X-4.788 Y5.751
N360 X-4.92 Y5.981
N365 X-4.998 Y6.131
N370 X-5.149 Y6.512
N375 X-5.301 Y6.908
N380 X-5.408 Y7.273
N385 X-5.498 Y7.653
N390 X-5.569 Y8.034
N395 X-5.609 Y8.414
N400 X-5.647 Y8.795
N405 X-5.65 Y9.175
N410 Y62.825
N415 X-5.647 Y63.205
N420 X-5.609 Y63.586
N425 X-5.569 Y63.966
N430 X-5.498 Y64.347
N435 X-5.408 Y64.727
N440 X-5.301 Y65.092
N445 X-5.149 Y65.488
N450 X-4.998 Y65.869
N455 X-4.92 Y66.019
N460 X-4.788 Y66.249
N465 X-4.568 Y66.63
N470 X-4.54 Y66.668
N475 X-3.809 Y67.77
N480 X-3.005 Y68.82
N485 X-2.006 Y69.686
N490 X-1.504 Y70.004
N495 X-1.323 Y70.127
N500 X-1.152 Y70.264
N505 X-0.991 Y70.413
N510 G3 X-0.874 Y71.141 Z-2.722 I-0.484 J0.451 F800.
N515 X-1.897 Y71.375 Z-2.6 I-0.602 J-0.276 F2201.28
N520 G1 X-1.956 Y71.32
N525 X-5.54 Y67.534
N530 X-5.586 Y67.48
N535 X-5.626 Y67.42
N540 G3 X-5.242 Y66.443 Z-2.722 I0.567 J-0.341
N545 X-4.54 Y66.668 Z-2.8 I0.183 J0.636 F800.
N550 G1 X-4.16 Y67.183 F2201.28
N555 X-3.992 Y67.391
N560 X-3.78 Y67.623
N565 X-3.253 Y68.152
N570 X3.977 Y75.381
N575 X4.359 Y75.762
N580 X4.585 Y75.973
N585 X4.785 Y76.142
N590 X4.965 Y76.279
N595 X5.345 Y76.539
N600 X5.726 Y76.776
N605 X6.106 Y76.973
N610 X6.486 Y77.149
N615 X7.247 Y77.41
N620 X7.627 Y77.49
N625 X8.007 Y77.567
N630 X8.387 Y77.607
N635 X8.767 Y77.634
N640 X9.148 Y77.65
N645 X12.57
N650 X12.95 Y77.648
N655 X13.71 Y77.604
N660 X14.09 Y77.545
N665 X14.471 Y77.474
N670 X14.851 Y77.383
N675 X15.173 Y77.284
N680 X15.231 Y77.264
N685 X15.611 Y77.115
N690 X15.992 Y76.939
N695 X16.058 Y76.903
N700 X16.372 Y76.723
N705 X16.752 Y76.468
N710 X17.132 Y76.21
N715 X17.283 Y76.108
N720 X17.985 Y75.71
N725 X18.893 Y75.288
N730 X20.09 Y74.845
N735 X21.363 Y74.486
N740 X22.656 Y74.208
N745 X23.961 Y73.992
N750 X24.065 Y73.978
N755 X24.51 Y73.955
N760 X24.953 Y73.998
N765 X25.385 Y74.107
N770 X25.795 Y74.28
N775 X26.175 Y74.512
N780 X26.516 Y74.798
N785 X26.81 Y75.132
N790 X26.998 Y75.381
N795 X27.788 Y76.142
N800 X28.158 Y76.41
N805 X28.539 Y76.669
N810 X28.919 Y76.878
N815 X29.299 Y77.073
N820 X29.679 Y77.217
N825 X30.06 Y77.345
N830 X30.44 Y77.454
N835 X30.82 Y77.529
N840 X31.2 Y77.596
N845 X31.961 Y77.646
N850 X32.341 Y77.65
N855 X64.659
N860 X65.039 Y77.646
N865 X65.8 Y77.596
N870 X66.18 Y77.529
N875 X66.56 Y77.454
N880 X66.94 Y77.345
N885 X67.321 Y77.217
N890 X67.701 Y77.076
N895 X68.061 Y76.903
N900 X68.081 Y76.892
N905 X68.461 Y76.678
N910 X68.703 Y76.523
N915 X68.842 Y76.424
N920 X69.324 Y76.098
N925 X70.03 Y75.7
N930 X70.945 Y75.277
N935 X72.151 Y74.833
N940 X73.425 Y74.477
N945 X74.718 Y74.201
N950 X76.023 Y73.986
N955 X76.626 Y73.909
N960 X77.065 Y73.886
N965 X77.502 Y73.928
N970 X77.928 Y74.033
N975 X78.334 Y74.201
N980 X78.711 Y74.427
N985 X79.05 Y74.706
N990 X79.344 Y75.033
N995 X79.615 Y75.381
N1000 X79.868 Y75.657
N1005 X79.975 Y75.762
N1010 X80.409 Y76.142
N1015 X80.628 Y76.323
N1020 X80.931 Y76.523
N1025 X81.566 Y76.903
N1030 X81.769 Y77.012
N1035 X82.149 Y77.177
N1040 X82.437 Y77.284
N1045 X83.29 Y77.514
N1050 X83.67 Y77.567
N1055 X84.05 Y77.618
N1060 X84.43 Y77.647
N1065 X84.811 Y77.65
N1070 X87.852
N1075 X88.233 Y77.634
N1080 X88.613 Y77.607
N1085 X88.993 Y77.567
N1090 X89.373 Y77.49
N1095 X89.753 Y77.41
N1100 X90.514 Y77.149
N1105 X90.894 Y76.973
N1110 X91.274 Y76.776
N1115 X91.655 Y76.539
N1120 X92.035 Y76.279
N1125 X93.127 Y75.534
N1130 X94.116 Y74.656
N1135 X94.929 Y73.613
N1140 X95.061 Y73.404
N1145 X95.212 Y73.208
N1150 X95.379 Y73.026
N1155 G3 X96.106 Y72.908 Z-2.722 I0.451 J0.484 F800.
N1160 X96.341 Y73.932 Z-2.6 I-0.276 J0.602 F2201.28
N1165 G1 X96.292 Y73.985
N1170 X92.914 Y77.267
N1175 X92.86 Y77.314
N1180 X92.801 Y77.356
N1185 G3 X91.819 Y76.984 Z-2.722 I-0.348 J-0.563
N1190 X92.035 Y76.279 Z-2.8 I0.634 J-0.191 F800.
N1195 G1 X92.215 Y76.142 F2201.28
N1200 X92.415 Y75.955
N1205 X93.021 Y75.381
N1210 X93.175 Y75.229
N1215 X100.019 Y68.385
N1220 X100.251 Y68.152
N1225 X100.78 Y67.614
N1230 X100.992 Y67.391
N1235 X101.16 Y67.183
N1240 X101.568 Y66.63
N1245 X101.788 Y66.249
N1250 X101.92 Y66.019
N1255 X101.998 Y65.869
N1260 X102.149 Y65.488
N1265 X102.301 Y65.092
N1270 X102.408 Y64.727
N1275 X102.498 Y64.347
N1280 X102.569 Y63.966
N1285 X102.609 Y63.586
N1290 X102.644 Y63.205
N1295 X102.649 Y62.444
N1300 X102.65 Y61.683
N1305 Y9.936
N1310 X102.649 Y9.556
N1315 X102.644 Y8.795
N1320 X102.609 Y8.414
N1325 X102.569 Y8.034
N1330 X102.498 Y7.653
N1335 X102.408 Y7.273
N1340 X102.301 Y6.908
N1345 X102.149 Y6.512
N1350 X101.999 Y6.131
N1355 X101.92 Y5.972
N1360 X101.801 Y5.751
N1365 X101.571 Y5.37
N1370 X101.304 Y4.99
N1375 X101.183 Y4.817
N1380 X100.513 Y3.677
N1385 X99.598 Y2.722
N1390 X98.532 Y1.939
N1395 X98.488 Y1.915
N1400 X98.248 Y1.769
N1405 X98.024 Y1.601
N1410 X97.816 Y1.412
N1415 G3 X97.699 Y0.684 Z-2.722 I0.484 J-0.451 F800.
N1420 X98.722 Y0.45 Z-2.6 I0.602 J0.276 F2201.28
N1425 G1 X98.775 Y0.498
N1430 X102.286 Y4.103
N1435 X102.331 Y4.154
N1440 X102.37 Y4.21
N1445 G3 X102.011 Y5.196 Z-2.722 I-0.559 J0.355
N1450 X101.304 Y4.99 Z-2.8 I-0.199 J-0.631 F800.
N1455 G1 X101.16 Y4.805 F2201.28
N1460 X100.994 Y4.609
N1465 X100.78 Y4.386
N1470 X100.251 Y3.848
N1475 X99.872 Y3.468
N1480 X93.023 Y-3.381
N1485 X92.641 Y-3.762
N1490 X92.415 Y-3.973
N1495 X92.215 Y-4.142
N1500 X92.035 Y-4.279
N1505 X91.655 Y-4.539
N1510 X91.274 Y-4.776
N1515 X90.894 Y-4.973
N1520 X90.514 Y-5.149
N1525 X89.753 Y-5.41
N1530 X89.373 Y-5.49
N1535 X88.993 Y-5.567
N1540 X88.613 Y-5.607
N1545 X88.233 Y-5.634
N1550 X87.852 Y-5.65
N1555 X84.811
N1560 X84.43 Y-5.647
N1565 X84.05 Y-5.618
N1570 X83.67 Y-5.567
N1575 X83.29 Y-5.514
N1580 X82.437 Y-5.284
N1585 X82.149 Y-5.177
N1590 X81.769 Y-5.012
N1595 X81.566 Y-4.903
N1600 X80.931 Y-4.523
N1605 X80.628 Y-4.326
N1610 X80.154 Y-4.017
N1615 X79.409 Y-3.613
N1620 X78.442 Y-3.186
N1625 X77.193 Y-2.75
N1630 X75.915 Y-2.413
N1635 X74.619 Y-2.151
N1640 X73.312 Y-1.947
N1645 X73.005 Y-1.91
N1650 X72.572 Y-1.889
N1655 X72.141 Y-1.93
N1660 X71.721 Y-2.033
N1665 X71.319 Y-2.196
N1670 X70.945 Y-2.415
N1675 X70.607 Y-2.685
N1680 X70.311 Y-3.001
N1685 X70.003 Y-3.381
N1690 X69.982 Y-3.404
N1695 X69.602 Y-3.799
N1700 X69.217 Y-4.142
N1705 X68.842 Y-4.424
N1710 X68.703 Y-4.523
N1715 X68.461 Y-4.678
N1720 X68.081 Y-4.892
N1725 X68.061 Y-4.903
N1730 X67.701 Y-5.076
N1735 X67.321 Y-5.217
N1740 X66.94 Y-5.345
N1745 X66.56 Y-5.454
N1750 X66.18 Y-5.529
N1755 X65.8 Y-5.596
N1760 X65.039 Y-5.646
N1765 X64.659 Y-5.65
N1770 X32.341
N1775 X31.961 Y-5.646
N1780 X31.2 Y-5.596
N1785 X30.82 Y-5.529
N1790 X30.44 Y-5.454
N1795 X30.06 Y-5.345
N1800 X29.679 Y-5.217
N1805 X29.299 Y-5.073
N1810 X28.919 Y-4.878
N1815 X28.539 Y-4.669
N1820 X28.158 Y-4.41
N1825 X27.544 Y-4.012
N1830 X26.797 Y-3.608
N1835 X25.826 Y-3.18
N1840 X24.577 Y-2.745
N1845 X23.298 Y-2.41
N1850 X22.002 Y-2.149
N1855 X21.024 Y-1.996
N1860 X20.585 Y-1.961
N1865 X20.146 Y-1.991
N1870 X19.716 Y-2.086
N1875 X19.304 Y-2.244
N1880 X18.921 Y-2.461
N1885 X18.574 Y-2.732
N1890 X18.271 Y-3.052
N1895 X18.003 Y-3.381
N1900 X17.893 Y-3.496
N1905 X17.635 Y-3.762
N1910 X17.512 Y-3.883
N1915 X17.216 Y-4.142
N1920 X17.132 Y-4.21
N1925 X16.703 Y-4.523
N1930 X16.372 Y-4.732
N1935 X16.06 Y-4.903
N1940 X15.992 Y-4.938
N1945 X15.611 Y-5.116
N1950 X15.231 Y-5.249
N1955 X14.851 Y-5.373
N1960 X14.471 Y-5.474
N1965 X14.09 Y-5.545
N1970 X13.71 Y-5.612
N1975 X13.33 Y-5.64
N1980 X12.95 Y-5.65
N1985 X9.148
N1990 X8.767 Y-5.634
N1995 X8.387 Y-5.607
N2000 X8.007 Y-5.567
N2005 X7.627 Y-5.49
N2010 X7.247 Y-5.41
N2015 X6.486 Y-5.149
N2020 X6.106 Y-4.973
N2025 X5.726 Y-4.776
N2030 X5.345 Y-4.539
N2035 X4.965 Y-4.279
N2040 X4.785 Y-4.142
N2045 X4.585 Y-3.973
N2050 X4.359 Y-3.762
N2055 X3.596 Y-3.001
N2060 X-3.059 Y3.654
N2065 G3 X-3.757 Y3.984 I-0.866 J-0.929 F800.
N2070 G1 X-3.898 Y4.003 Z-2.792
N2075 X-4.038 Y4.021 Z-2.768
N2080 X-4.173 Y4.039 Z-2.729
N2085 X-4.304 Y4.057 Z-2.674
N2090 X-4.427 Y4.073 Z-2.605
N2095 X-4.542 Y4.088 Z-2.523
N2100 X-4.648 Y4.102 Z-2.428
N2105 X-4.742 Y4.115 Z-2.322
N2110 X-4.823 Y4.126 Z-2.206
N2115 X-4.892 Y4.135 Z-2.081
N2120 X-4.946 Y4.142 Z-1.949
N2125 X-4.985 Y4.147 Z-1.813
N2130 X-5.008 Y4.15 Z-1.672
N2135 X-5.016 Y4.151 Z-1.53
N2140 G0 Z5.
N2145 X29.144 Y-6.196
N2150 Z-0.26
N2155 G1 Z-1.53 F800.
N2160 X29.141 Y-6.189 Z-1.672
N2165 X29.132 Y-6.167 Z-1.813
N2170 X29.116 Y-6.131 Z-1.949
N2175 X29.094 Y-6.081 Z-2.081
N2180 X29.067 Y-6.018 Z-2.206
N2185 X29.034 Y-5.942 Z-2.322
N2190 X28.996 Y-5.855 Z-2.428
N2195 X28.954 Y-5.758 Z-2.523
N2200 X28.908 Y-5.651 Z-2.605
N2205 X28.859 Y-5.537 Z-2.674
N2210 X28.806 Y-5.416 Z-2.729
N2215 X28.752 Y-5.29 Z-2.768
N2220 X28.696 Y-5.161 Z-2.792
N2225 X28.64 Y-5.031 Z-2.8
N2230 G3 X28.158 Y-4.41 I-1.452 J-0.629
N2235 G1 X27.788 Y-4.142 F2201.28
N2240 X26.998 Y-3.381
N2245 X26.711 Y-3.001
N2250 X26.429 Y-2.62
N2255 X26.257 Y-2.337
N2260 X26.201 Y-2.24
N2265 X26.09 Y-2.031
N2270 X25.919 Y-1.744
N2275 X25.672 Y-1.399
N2280 X25.354 Y-1.021
N2285 X24.99 Y-0.652
N2290 X24.591 Y-0.309
N2295 X24.173 Y-0.005
N2300 X23.741 Y0.26
N2305 X23.28 Y0.494
N2310 X22.824 Y0.681
N2315 X22.334 Y0.837
N2320 X21.858 Y0.948
N2325 X21.454 Y0.97
N2330 X21.053 Y0.916
N2335 X20.668 Y0.789
N2340 X20.314 Y0.593
N2345 X20.003 Y0.334
N2350 X19.745 Y0.022
N2355 X19.55 Y-0.333
N2360 X19.424 Y-0.718
N2365 G3 X19.482 Y-1.485 Z-2.722 I1.236 J-0.292 F800.
N2370 X20.222 Y-2.202 Z-2.615 I1.178 J0.475 F2201.28
N2375 G1 X20.364 Y-2.254 Z-2.6
N2380 X24.51 Y-3.78
N2385 G3 X25.507 Y-3.728 I0.438 J1.192
N2390 X26.202 Y-2.792 Z-2.722 I-0.558 J1.141
N2395 X26.09 Y-2.031 Z-2.8 I-1.254 J0.204 F800.
N2400 G1 X25.999 Y-1.859 F2201.28
N2405 X25.877 Y-1.561
N2410 X25.704 Y-1.098
N2415 X25.589 Y-0.718
N2420 X25.497 Y-0.321
N2425 X25.428 Y0.043
N2430 X25.425 Y0.078
N2435 X25.402 Y0.226
N2440 X25.346 Y0.462
N2445 X25.261 Y0.723
N2450 X25.15 Y0.989
N2455 X25.004 Y1.272
N2460 X24.844 Y1.531
N2465 X24.65 Y1.794
N2470 X24.438 Y2.037
N2475 X24.21 Y2.26
N2480 X23.949 Y2.477
N2485 X23.686 Y2.662
N2490 X23.388 Y2.837
N2495 X23.086 Y2.984
N2500 X22.771 Y3.107
N2505 X22.435 Y3.208
N2510 X22.108 Y3.279
N2515 X21.75 Y3.326
N2520 X21.392 Y3.312
N2525 X21.041 Y3.234
N2530 X20.711 Y3.095
N2535 X20.41 Y2.899
N2540 X20.149 Y2.653
N2545 X19.937 Y2.363
N2550 X19.779 Y2.041
N2555 X19.682 Y1.696
N2560 X19.648 Y1.339
N2565 X19.647 Y1.185
N2570 G3 X19.902 Y0.459 Z-2.722 I1.269 J0.038 F800.
N2575 X20.467 Y0.034 Z-2.65 I1.015 J0.764 F2201.28
N2580 G1 X20.931 Y-0.141 Z-2.6
N2585 X23.708 Y-1.192
N2590 G3 X24.24 Y-1.271 I0.449 J1.188
N2595 X25.24 Y-0.669 Z-2.722 I-0.083 J1.267
N2600 X25.425 Y0.078 Z-2.8 I-1.082 J0.665 F800.
N2605 G1 X25.353 Y0.804 F2201.28
N2610 X25.35 Y1.185
N2615 Y2.155
N2620 X25.338 Y2.397
N2625 X25.31 Y2.606
N2630 X25.261 Y2.835
N2635 X25.19 Y3.073
N2640 X25.095 Y3.318
N2645 X24.972 Y3.572
N2650 X24.818 Y3.833
N2655 X24.647 Y4.076
N2660 X24.452 Y4.311
N2665 X24.235 Y4.534
N2670 X24.007 Y4.733
N2675 X23.746 Y4.926
N2680 X23.484 Y5.088
N2685 X23.193 Y5.239
N2690 X22.899 Y5.362
N2695 X22.59 Y5.462
N2700 X22.269 Y5.539
N2705 X21.952 Y5.589
N2710 X21.937 Y5.59
N2715 X21.549 Y5.584
N2720 X21.168 Y5.507
N2725 X20.807 Y5.362
N2730 X20.479 Y5.153
N2735 X20.194 Y4.889
N2740 X19.962 Y4.577
N2745 X19.791 Y4.229
N2750 X19.685 Y3.855
N2755 X19.65 Y3.468
N2760 Y1.946
N2765 X19.648 Y1.339
N2770 G3 X19.903 Y0.613 Z-2.722 I1.269 J0.038 F800.
N2775 X20.954 Y0.107 Z-2.6 I1.015 J0.764 F2201.28
N2780 X21.237 Y0.147 I-0.037 J1.269
N2785 G1 X24.046 Y0.878
N2790 X24.401 Y0.97 Z-2.637
N2795 G3 X25.092 Y1.43 Z-2.722 I-0.32 J1.229
N2800 X25.35 Y2.155 Z-2.8 I-1.011 J0.769 F800.
N2805 G1 Y4.438 F2201.28
N2810 X25.337 Y4.701
N2815 X25.309 Y4.911
N2820 X25.262 Y5.131
N2825 X25.191 Y5.368
N2830 X25.096 Y5.613
N2835 X24.976 Y5.86
N2840 X24.829 Y6.109
N2845 X24.668 Y6.338
N2850 X24.473 Y6.573
N2855 X24.267 Y6.784
N2860 X24.038 Y6.984
N2865 X23.787 Y7.17
N2870 X23.53 Y7.33
N2875 X23.239 Y7.48
N2880 X22.951 Y7.601
N2885 X22.639 Y7.703
N2890 X22.32 Y7.779
N2895 X22.001 Y7.829
N2900 X21.898 Y7.836
N2905 X21.516 Y7.83
N2910 X21.141 Y7.754
N2915 X20.787 Y7.612
N2920 X20.465 Y7.407
N2925 X20.185 Y7.147
N2930 X19.957 Y6.841
N2935 X19.788 Y6.498
N2940 X19.685 Y6.131
N2945 X19.65 Y5.751
N2950 Y3.468
N2955 G3 X19.908 Y2.743 Z-2.722 I1.269 J0.044 F800.
N2960 X20.963 Y2.243 Z-2.6 I1.011 J0.769 F2201.28
N2965 X21.292 Y2.298 I-0.043 J1.269
N2970 G1 X24.05 Y3.144
N2975 X24.453 Y3.268 Z-2.642
N2980 G3 X25.092 Y3.713 Z-2.722 I-0.373 J1.214
N2985 X25.35 Y4.438 Z-2.8 I-1.011 J0.769 F800.
N2990 G1 Y6.721 F2201.28
N2995 X25.338 Y6.962
N3000 X25.311 Y7.169
N3005 X25.264 Y7.386
N3010 X25.195 Y7.619
N3015 X25.1 Y7.861
N3020 X24.981 Y8.106
N3025 X24.836 Y8.353
N3030 X24.673 Y8.585
N3035 X24.476 Y8.822
N3040 X24.267 Y9.037
N3045 X24.037 Y9.237
N3050 X23.783 Y9.425
N3055 X23.524 Y9.586
N3060 X23.232 Y9.737
N3065 X22.942 Y9.858
N3070 X22.63 Y9.96
N3075 X22.311 Y10.037
N3080 X21.991 Y10.087
N3085 X21.872 Y10.096
N3090 X21.494 Y10.089
N3095 X21.124 Y10.014
N3100 X20.774 Y9.873
N3105 X20.455 Y9.671
N3110 X20.179 Y9.414
N3115 X19.953 Y9.112
N3120 X19.787 Y8.773
N3125 X19.684 Y8.409
N3130 X19.65 Y8.034
N3135 Y5.751
N3140 G3 X19.908 Y5.026 Z-2.722 I1.269 J0.044 F800.
N3145 X20.963 Y4.526 Z-2.6 I1.011 J0.769 F2201.28
N3150 X21.292 Y4.581 I-0.043 J1.269
N3155 G1 X24.05 Y5.427
N3160 X24.453 Y5.551 Z-2.642
N3165 G3 X25.092 Y5.996 Z-2.722 I-0.373 J1.214
N3170 X25.35 Y6.721 Z-2.8 I-1.011 J0.769 F800.
N3175 G1 Y9.004 F2201.28
N3180 X25.339 Y9.215
N3185 X25.312 Y9.423
N3190 X25.266 Y9.641
N3195 X25.196 Y9.874
N3200 X25.101 Y10.117
N3205 X24.982 Y10.362
N3210 X24.836 Y10.61
N3215 X24.672 Y10.845
N3220 X24.474 Y11.083
N3225 X24.263 Y11.299
N3230 X24.032 Y11.5
N3235 X23.777 Y11.689
N3240 X23.518 Y11.85
N3245 X23.225 Y12.001
N3250 X22.934 Y12.123
N3255 X22.622 Y12.225
N3260 X22.302 Y12.302
N3265 X21.983 Y12.351
N3270 X21.853 Y12.361
N3275 X21.479 Y12.355
N3280 X21.112 Y12.281
N3285 X20.765 Y12.141
N3290 X20.449 Y11.94
N3295 X20.174 Y11.686
N3300 X19.951 Y11.386
N3305 X19.786 Y11.05
N3310 X19.684 Y10.689
N3315 X19.65 Y10.317
N3320 Y8.034
N3325 G3 X19.908 Y7.309 Z-2.722 I1.269 J0.044 F800.
N3330 X20.963 Y6.809 Z-2.6 I1.011 J0.769 F2201.28
N3335 X21.292 Y6.864 I-0.043 J1.269
N3340 G1 X24.05 Y7.71
N3345 X24.453 Y7.834 Z-2.642
N3350 G3 X25.092 Y8.279 Z-2.722 I-0.373 J1.214
N3355 X25.35 Y9.004 Z-2.8 I-1.011 J0.769 F800.
N3360 G1 Y11.287 F2201.28
N3365 X25.341 Y11.476
N3370 X25.313 Y11.684
N3375 X25.267 Y11.903
N3380 X25.196 Y12.137
N3385 X25.102 Y12.38
N3390 X24.982 Y12.626
N3395 X24.836 Y12.875
N3400 X24.67 Y13.11
N3405 X24.472 Y13.349
N3410 X24.26 Y13.567
N3415 X24.029 Y13.768
N3420 X23.772 Y13.958
N3425 X23.513 Y14.12
N3430 X23.219 Y14.271
N3435 X22.928 Y14.393
N3440 X22.616 Y14.495
N3445 X22.296 Y14.571
N3450 X21.976 Y14.621
N3455 X21.84 Y14.631
N3460 X21.468 Y14.625
N3465 X21.103 Y14.551
N3470 X20.758 Y14.413
N3475 X20.444 Y14.213
N3480 X20.171 Y13.96
N3485 X19.949 Y13.662
N3490 X19.785 Y13.328
N3495 X19.684 Y12.97
N3500 X19.65 Y12.6
N3505 Y10.317
N3510 G3 X19.908 Y9.592 Z-2.722 I1.269 J0.044 F800.
N3515 X20.963 Y9.092 Z-2.6 I1.011 J0.769 F2201.28
N3520 X21.292 Y9.147 I-0.043 J1.269
N3525 G1 X24.05 Y9.993
N3530 X24.453 Y10.117 Z-2.642
N3535 G3 X25.092 Y10.562 Z-2.722 I-0.373 J1.214
N3540 X25.35 Y11.287 Z-2.8 I-1.011 J0.769 F800.
N3545 G1 Y13.57 F2201.28
N3550 X25.341 Y13.743
N3555 X25.314 Y13.951
N3560 X25.267 Y14.17
N3565 X25.197 Y14.405
N3570 X25.102 Y14.649
N3575 X24.982 Y14.895
N3580 X24.836 Y15.144
N3585 X24.669 Y15.381
N3590 X24.471 Y15.62
N3595 X24.258 Y15.839
N3600 X24.026 Y16.041
N3605 X23.769 Y16.231
N3610 X23.509 Y16.393
N3615 X23.215 Y16.544
N3620 X22.924 Y16.666
N3625 X22.611 Y16.768
N3630 X22.292 Y16.845
N3635 X21.972 Y16.895
N3640 X21.83 Y16.905
N3645 X21.459 Y16.899
N3650 X21.096 Y16.826
N3655 X20.753 Y16.687
N3660 X20.44 Y16.489
N3665 X20.169 Y16.237
N3670 X19.948 Y15.94
N3675 X19.784 Y15.608
N3680 X19.684 Y15.251
N3685 X19.65 Y14.882
N3690 Y12.6
N3695 G3 X19.908 Y11.875 Z-2.722 I1.269 J0.044 F800.
N3700 X20.963 Y11.375 Z-2.6 I1.011 J0.769 F2201.28
N3705 X21.292 Y11.43 I-0.043 J1.269
N3710 G1 X24.05 Y12.276
N3715 X24.453 Y12.4 Z-2.642
N3720 G3 X25.092 Y12.845 Z-2.722 I-0.373 J1.214
N3725 X25.35 Y13.57 Z-2.8 I-1.011 J0.769 F800.
N3730 G1 Y15.853 F2201.28
N3735 X25.342 Y16.014
N3740 X25.315 Y16.223
N3745 X25.268 Y16.442
N3750 X25.197 Y16.677
N3755 X25.102 Y16.921
N3760 X24.983 Y17.167
N3765 X24.836 Y17.417
N3770 X24.669 Y17.655
N3775 X24.47 Y17.895
N3780 X24.256 Y18.113
N3785 X24.024 Y18.316
N3790 X23.767 Y18.506
N3795 X23.506 Y18.668
N3800 X23.213 Y18.82
N3805 X22.921 Y18.942
N3810 X22.608 Y19.044
N3815 X22.288 Y19.121
N3820 X21.969 Y19.171
N3825 X21.822 Y19.181
N3830 X21.453 Y19.175
N3835 X21.092 Y19.102
N3840 X20.749 Y18.964
N3845 X20.437 Y18.767
N3850 X20.167 Y18.516
N3855 X19.947 Y18.219
N3860 X19.784 Y17.888
N3865 X19.684 Y17.533
N3870 X19.65 Y17.165
N3875 Y14.882
N3880 G3 X19.908 Y14.158 Z-2.722 I1.269 J0.044 F800.
N3885 X20.963 Y13.658 Z-2.6 I1.011 J0.769 F2201.28
N3890 X21.292 Y13.713 I-0.043 J1.269
N3895 G1 X24.05 Y14.559
N3900 X24.453 Y14.683 Z-2.642
N3905 G3 X25.092 Y15.128 Z-2.722 I-0.373 J1.214
N3910 X25.35 Y15.853 Z-2.8 I-1.011 J0.769 F800.
N3915 G1 Y18.136 F2201.28
N3920 X25.342 Y18.288
N3925 X25.315 Y18.497
N3930 X25.268 Y18.717
N3935 X25.197 Y18.952
N3940 X25.102 Y19.196
N3945 X24.983 Y19.443
N3950 X24.836 Y19.693
N3955 X24.668 Y19.931
N3960 X24.469 Y20.171
N3965 X24.255 Y20.39
N3970 X24.023 Y20.593
N3975 X23.765 Y20.784
N3980 X23.504 Y20.946
N3985 X23.21 Y21.098
N3990 X22.918 Y21.22
N3995 X22.606 Y21.322
N4000 X22.286 Y21.398
N4005 X21.966 Y21.448
N4010 X21.817 Y21.459
N4015 X21.449 Y21.453
N4020 X21.088 Y21.38
N4025 X20.746 Y21.243
N4030 X20.436 Y21.046
N4035 X20.166 Y20.795
N4040 X19.946 Y20.5
N4045 X19.783 Y20.169
N4050 X19.684 Y19.815
N4055 X19.65 Y19.448
N4060 Y17.165
N4065 G3 X19.908 Y16.441 Z-2.722 I1.269 J0.044 F800.
N4070 X20.963 Y15.941 Z-2.6 I1.011 J0.769 F2201.28
N4075 X21.292 Y15.996 I-0.043 J1.269
N4080 G1 X24.05 Y16.842
N4085 X24.453 Y16.966 Z-2.642
N4090 G3 X25.092 Y17.411 Z-2.722 I-0.373 J1.214
N4095 X25.35 Y18.136 Z-2.8 I-1.011 J0.769 F800.
N4100 G1 Y20.419 F2201.28
N4105 X25.343 Y20.569
N4110 X25.315 Y20.778
N4115 X25.267 Y20.998
N4120 X25.196 Y21.234
N4125 X25.101 Y21.478
N4130 X24.98 Y21.725
N4135 X24.833 Y21.975
N4140 X24.664 Y22.214
N4145 X24.464 Y22.454
N4150 X24.25 Y22.673
N4155 X24.017 Y22.876
N4160 X23.759 Y23.066
N4165 X23.497 Y23.228
N4170 X23.203 Y23.379
N4175 X22.911 Y23.501
N4180 X22.598 Y23.603
N4185 X22.278 Y23.679
N4190 X21.958 Y23.728
N4195 X21.81 Y23.739
N4200 X21.443 Y23.732
N4205 X21.083 Y23.659
N4210 X20.743 Y23.522
N4215 X20.433 Y23.325
N4220 X20.164 Y23.075
N4225 X19.945 Y22.78
N4230 X19.783 Y22.451
N4235 X19.683 Y22.097
N4240 X19.65 Y21.731
N4245 Y19.448
N4250 G3 X19.908 Y18.724 Z-2.722 I1.269 J0.044 F800.
N4255 X20.963 Y18.223 Z-2.6 I1.011 J0.769 F2201.28
N4260 X21.292 Y18.279 I-0.043 J1.269
N4265 G1 X24.05 Y19.125
N4270 X24.453 Y19.249 Z-2.642
N4275 G3 X25.092 Y19.694 Z-2.722 I-0.373 J1.214
N4280 X25.35 Y20.419 Z-2.8 I-1.011 J0.769 F800.
N4285 G1 Y22.702 F2201.28
N4290 X25.343 Y22.851
N4295 X25.314 Y23.062
N4300 X25.266 Y23.282
N4305 X25.195 Y23.518
N4310 X25.098 Y23.763
N4315 X24.977 Y24.01
N4320 X24.829 Y24.26
N4325 X24.66 Y24.499
N4330 X24.459 Y24.739
N4335 X24.244 Y24.958
N4340 X24.011 Y25.16
N4345 X23.752 Y25.35
N4350 X23.49 Y25.512
N4355 X23.195 Y25.663
N4360 X22.903 Y25.784
N4365 X22.589 Y25.885
N4370 X22.27 Y25.961
N4375 X21.949 Y26.01
N4380 X21.804 Y26.02
N4385 X21.437 Y26.013
N4390 X21.079 Y25.939
N4395 X20.739 Y25.801
N4400 X20.43 Y25.605
N4405 X20.162 Y25.355
N4410 X19.944 Y25.061
N4415 X19.782 Y24.732
N4420 X19.683 Y24.379
N4425 X19.65 Y24.014
N4430 Y21.731
N4435 G3 X19.908 Y21.007 Z-2.722 I1.269 J0.044 F800.
N4440 X20.963 Y20.506 Z-2.6 I1.011 J0.769 F2201.28
N4445 X21.292 Y20.562 I-0.043 J1.269
N4450 G1 X24.05 Y21.408
N4455 X24.453 Y21.532 Z-2.642
N4460 G3 X25.092 Y21.977 Z-2.722 I-0.373 J1.214
N4465 X25.35 Y22.702 Z-2.8 I-1.011 J0.769 F800.
N4470 G1 Y24.985 F2201.28
N4475 X25.343 Y25.134
N4480 X25.314 Y25.345
N4485 X25.266 Y25.565
N4490 X25.194 Y25.802
N4495 X25.097 Y26.047
N4500 X24.976 Y26.294
N4505 X24.827 Y26.544
N4510 X24.657 Y26.783
N4515 X24.456 Y27.023
N4520 X24.24 Y27.242
N4525 X24.006 Y27.444
N4530 X23.747 Y27.634
N4535 X23.485 Y27.796
N4540 X23.19 Y27.946
N4545 X22.898 Y28.067
N4550 X22.583 Y28.168
N4555 X22.264 Y28.243
N4560 X21.943 Y28.291
N4565 X21.799 Y28.301
N4570 X21.434 Y28.294
N4575 X21.075 Y28.22
N4580 X20.737 Y28.082
N4585 X20.428 Y27.885
N4590 X20.161 Y27.636
N4595 X19.943 Y27.342
N4600 X19.782 Y27.014
N4605 X19.683 Y26.662
N4610 X19.65 Y26.297
N4615 Y24.014
N4620 G3 X19.908 Y23.29 Z-2.722 I1.269 J0.044 F800.
N4625 X20.963 Y22.789 Z-2.6 I1.011 J0.769 F2201.28
N4630 X21.292 Y22.845 I-0.043 J1.269
N4635 G1 X24.05 Y23.691
N4640 X24.453 Y23.815 Z-2.642
N4645 G3 X25.092 Y24.26 Z-2.722 I-0.373 J1.214
N4650 X25.35 Y24.985 Z-2.8 I-1.011 J0.769 F800.
N4655 G1 Y27.268 F2201.28
N4660 X25.343 Y27.417
N4665 X25.314 Y27.628
N4670 X25.265 Y27.849
N4675 X25.193 Y28.086
N4680 X25.096 Y28.33
N4685 X24.974 Y28.578
N4690 X24.825 Y28.828
N4695 X24.655 Y29.067
N4700 X24.454 Y29.307
N4705 X24.238 Y29.526
N4710 X24.003 Y29.728
N4715 X23.744 Y29.918
N4720 X23.482 Y30.079
N4725 X23.186 Y30.229
N4730 X22.894 Y30.35
N4735 X22.579 Y30.45
N4740 X22.26 Y30.525
N4745 X21.938 Y30.573
N4750 X21.796 Y30.583
N4755 X21.431 Y30.575
N4760 X21.073 Y30.501
N4765 X20.735 Y30.363
N4770 X20.427 Y30.167
N4775 X20.16 Y29.917
N4780 X19.943 Y29.624
N4785 X19.782 Y29.296
N4790 X19.683 Y28.944
N4795 X19.65 Y28.58
N4800 Y26.297
N4805 G3 X19.908 Y25.573 Z-2.722 I1.269 J0.044 F800.
N4810 X20.963 Y25.072 Z-2.6 I1.011 J0.769 F2201.28
N4815 X21.292 Y25.128 I-0.043 J1.269
N4820 G1 X24.05 Y25.974
N4825 X24.453 Y26.098 Z-2.642
N4830 G3 X25.092 Y26.543 Z-2.722 I-0.373 J1.214
N4835 X25.35 Y27.268 Z-2.8 I-1.011 J0.769 F800.
N4840 G1 Y29.551 F2201.28
N4845 X25.343 Y29.7
N4850 X25.314 Y29.911
N4855 X25.265 Y30.132
N4860 X25.192 Y30.369
N4865 X25.095 Y30.614
N4870 X24.973 Y30.861
N4875 X24.824 Y31.112
N4880 X24.653 Y31.351
N4885 X24.452 Y31.591
N4890 X24.236 Y31.81
N4895 X24.001 Y32.011
N4900 X23.742 Y32.201
N4905 X23.479 Y32.362
N4910 X23.184 Y32.512
N4915 X22.891 Y32.633
N4920 X22.576 Y32.733
N4925 X22.257 Y32.808
N4930 X21.935 Y32.856
N4935 X21.794 Y32.866
N4940 X21.429 Y32.857
N4945 X21.072 Y32.783
N4950 X20.734 Y32.645
N4955 X20.426 Y32.449
N4960 X20.159 Y32.199
N4965 X19.942 Y31.906
N4970 X19.782 Y31.578
N4975 X19.683 Y31.227
N4980 X19.65 Y30.863
N4985 Y28.58
N4990 G3 X19.908 Y27.856 Z-2.722 I1.269 J0.044 F800.
N4995 X20.963 Y27.355 Z-2.6 I1.011 J0.769 F2201.28
N5000 X21.292 Y27.411 I-0.043 J1.269
N5005 G1 X24.05 Y28.257
N5010 X24.453 Y28.381 Z-2.642
N5015 G3 X25.092 Y28.826 Z-2.722 I-0.373 J1.214
N5020 X25.35 Y29.551 Z-2.8 I-1.011 J0.769 F800.
N5025 G1 Y31.834 F2201.28
N5030 X25.343 Y31.983
N5035 X25.313 Y32.194
N5040 X25.265 Y32.415
N5045 X25.192 Y32.652
N5050 X25.095 Y32.897
N5055 X24.973 Y33.144
N5060 X24.823 Y33.395
N5065 X24.652 Y33.635
N5070 X24.451 Y33.874
N5075 X24.234 Y34.093
N5080 X24. Y34.295
N5085 X23.74 Y34.484
N5090 X23.477 Y34.645
N5095 X23.182 Y34.795
N5100 X22.889 Y34.916
N5105 X22.574 Y35.016
N5110 X22.255 Y35.09
N5115 X21.933 Y35.138
N5120 X21.793 Y35.148
N5125 X21.428 Y35.14
N5130 X21.071 Y35.065
N5135 X20.733 Y34.927
N5140 X20.426 Y34.731
N5145 X20.159 Y34.482
N5150 X19.942 Y34.189
N5155 X19.782 Y33.861
N5160 X19.683 Y33.51
N5165 X19.65 Y33.146
N5170 Y30.863
N5175 G3 X19.908 Y30.139 Z-2.722 I1.269 J0.044 F800.
N5180 X20.963 Y29.638 Z-2.6 I1.011 J0.769 F2201.28
N5185 X21.292 Y29.694 I-0.043 J1.269
N5190 G1 X24.05 Y30.54
N5195 X24.453 Y30.664 Z-2.642
N5200 G3 X25.092 Y31.109 Z-2.722 I-0.373 J1.214
N5205 X25.35 Y31.834 Z-2.8 I-1.011 J0.769 F800.
N5210 G1 Y34.117 F2201.28
N5215 X25.343 Y34.266
N5220 X25.313 Y34.477
N5225 X25.264 Y34.698
N5230 X25.192 Y34.936
N5235 X25.094 Y35.18
N5240 X24.972 Y35.428
N5245 X24.822 Y35.679
N5250 X24.651 Y35.918
N5255 X24.45 Y36.157
N5260 X24.233 Y36.376
N5265 X23.999 Y36.578
N5270 X23.739 Y36.767
N5275 X23.476 Y36.928
N5280 X23.181 Y37.078
N5285 X22.888 Y37.198
N5290 X22.573 Y37.299
N5295 X22.253 Y37.373
N5300 X21.932 Y37.421
N5305 X21.792 Y37.431
N5310 X21.427 Y37.422
N5315 X21.07 Y37.348
N5320 X20.732 Y37.21
N5325 X20.425 Y37.013
N5330 X20.159 Y36.764
N5335 X19.942 Y36.471
N5340 X19.781 Y36.144
N5345 X19.683 Y35.792
N5350 X19.65 Y35.429
N5355 Y33.146
N5360 G3 X19.908 Y32.422 Z-2.722 I1.269 J0.044 F800.
N5365 X20.963 Y31.921 Z-2.6 I1.011 J0.769 F2201.28
N5370 X21.292 Y31.976 I-0.043 J1.269
N5375 G1 X24.05 Y32.823
N5380 X24.453 Y32.947 Z-2.642
N5385 G3 X25.092 Y33.392 Z-2.722 I-0.373 J1.214
N5390 X25.35 Y34.117 Z-2.8 I-1.011 J0.769 F800.
N5395 G1 Y36.4 F2201.28
N5400 X25.343 Y36.549
N5405 X25.313 Y36.76
N5410 X25.264 Y36.981
N5415 X25.191 Y37.219
N5420 X25.094 Y37.464
N5425 X24.972 Y37.711
N5430 X24.822 Y37.962
N5435 X24.651 Y38.201
N5440 X24.449 Y38.441
N5445 X24.233 Y38.659
N5450 X23.998 Y38.861
N5455 X23.738 Y39.051
N5460 X23.475 Y39.212
N5465 X23.18 Y39.361
N5470 X22.887 Y39.481
N5475 X22.572 Y39.582
N5480 X22.252 Y39.656
N5485 X21.931 Y39.704
N5490 X21.791 Y39.713
N5495 X21.426 Y39.705
N5500 X21.069 Y39.63
N5505 X20.732 Y39.492
N5510 X20.425 Y39.296
N5515 X20.159 Y39.047
N5520 X19.942 Y38.754
N5525 X19.781 Y38.426
N5530 X19.683 Y38.075
N5535 X19.65 Y37.712
N5540 Y35.429
N5545 G3 X19.908 Y34.705 Z-2.722 I1.269 J0.044 F800.
N5550 X20.963 Y34.204 Z-2.6 I1.011 J0.769 F2201.28
N5555 X21.292 Y34.259 I-0.043 J1.269
N5560 G1 X24.05 Y35.106
N5565 X24.453 Y35.23 Z-2.642
N5570 G3 X25.092 Y35.675 Z-2.722 I-0.373 J1.214
N5575 X25.35 Y36.4 Z-2.8 I-1.011 J0.769 F800.
N5580 G1 Y38.682 F2201.28
N5585 X25.343 Y38.832
N5590 X25.313 Y39.043
N5595 X25.264 Y39.264
N5600 X25.191 Y39.502
N5605 X25.094 Y39.747
N5610 X24.972 Y39.994
N5615 X24.821 Y40.245
N5620 X24.651 Y40.484
N5625 X24.449 Y40.724
N5630 X24.232 Y40.943
N5635 X23.998 Y41.144
N5640 X23.738 Y41.334
N5645 X23.475 Y41.495
N5650 X23.179 Y41.644
N5655 X22.886 Y41.764
N5660 X22.571 Y41.865
N5665 X22.252 Y41.939
N5670 X21.93 Y41.987
N5675 X21.79 Y41.996
N5680 X21.426 Y41.987
N5685 X21.069 Y41.913
N5690 X20.732 Y41.775
N5695 X20.425 Y41.579
N5700 X20.158 Y41.33
N5705 X19.942 Y41.037
N5710 X19.781 Y40.709
N5715 X19.683 Y40.358
N5720 X19.65 Y39.995
N5725 Y37.712
N5730 G3 X19.908 Y36.988 Z-2.722 I1.269 J0.044 F800.
N5735 X20.963 Y36.487 Z-2.6 I1.011 J0.769 F2201.28
N5740 X21.292 Y36.542 I-0.043 J1.269
N5745 G1 X24.05 Y37.389
N5750 X24.453 Y37.513 Z-2.642
N5755 G3 X25.092 Y37.958 Z-2.722 I-0.373 J1.214
N5760 X25.35 Y38.682 Z-2.8 I-1.011 J0.769 F800.
N5765 G1 Y40.965 F2201.28
N5770 X25.343 Y41.115
N5775 X25.313 Y41.326
N5780 X25.264 Y41.547
N5785 X25.191 Y41.785
N5790 X25.094 Y42.03
N5795 X24.971 Y42.277
N5800 X24.821 Y42.528
N5805 X24.65 Y42.767
N5810 X24.449 Y43.007
N5815 X24.232 Y43.226
N5820 X23.997 Y43.427
N5825 X23.737 Y43.617
N5830 X23.474 Y43.778
N5835 X23.179 Y43.927
N5840 X22.886 Y44.047
N5845 X22.571 Y44.148
N5850 X22.251 Y44.222
N5855 X21.93 Y44.27
N5860 X21.79 Y44.279
N5865 X21.426 Y44.27
N5870 X21.069 Y44.196
N5875 X20.731 Y44.058
N5880 X20.425 Y43.861
N5885 X20.158 Y43.612
N5890 X19.942 Y43.319
N5895 X19.781 Y42.992
N5900 X19.683 Y42.641
N5905 X19.65 Y42.278
N5910 Y39.995
N5915 G3 X19.908 Y39.271 Z-2.722 I1.269 J0.044 F800.
N5920 X20.963 Y38.77 Z-2.6 I1.011 J0.769 F2201.28
N5925 X21.292 Y38.825 I-0.043 J1.269
N5930 G1 X24.05 Y39.672
N5935 X24.453 Y39.796 Z-2.642
N5940 G3 X25.092 Y40.241 Z-2.722 I-0.373 J1.214
N5945 X25.35 Y40.965 Z-2.8 I-1.011 J0.769 F800.
N5950 G1 Y43.248 F2201.28
N5955 X25.343 Y43.398
N5960 X25.313 Y43.609
N5965 X25.264 Y43.83
N5970 X25.191 Y44.068
N5975 X25.094 Y44.313
N5980 X24.971 Y44.56
N5985 X24.821 Y44.811
N5990 X24.65 Y45.05
N5995 X24.448 Y45.29
N6000 X24.232 Y45.509
N6005 X23.997 Y45.71
N6010 X23.737 Y45.9
N6015 X23.474 Y46.061
N6020 X23.178 Y46.21
N6025 X22.885 Y46.33
N6030 X22.571 Y46.43
N6035 X22.251 Y46.505
N6040 X21.929 Y46.552
N6045 X21.79 Y46.562
N6050 X21.425 Y46.553
N6055 X21.069 Y46.479
N6060 X20.731 Y46.341
N6065 X20.424 Y46.144
N6070 X20.158 Y45.895
N6075 X19.942 Y45.602
N6080 X19.781 Y45.275
N6085 X19.683 Y44.924
N6090 X19.65 Y44.561
N6095 Y42.278
N6100 G3 X19.908 Y41.554 Z-2.722 I1.269 J0.044 F800.
N6105 X20.963 Y41.053 Z-2.6 I1.011 J0.769 F2201.28
N6110 X21.292 Y41.108 I-0.043 J1.269
N6115 G1 X24.05 Y41.955
N6120 X24.453 Y42.079 Z-2.642
N6125 G3 X25.092 Y42.524 Z-2.722 I-0.373 J1.214
N6130 X25.35 Y43.248 Z-2.8 I-1.011 J0.769 F800.
N6135 G1 Y45.531 F2201.28
N6140 X25.343 Y45.681
N6145 X25.313 Y45.892
N6150 X25.264 Y46.113
N6155 X25.191 Y46.351
N6160 X25.094 Y46.596
N6165 X24.971 Y46.843
N6170 X24.821 Y47.094
N6175 X24.65 Y47.333
N6180 X24.448 Y47.573
N6185 X24.231 Y47.792
N6190 X23.997 Y47.993
N6195 X23.737 Y48.183
N6200 X23.474 Y48.344
N6205 X23.178 Y48.493
N6210 X22.885 Y48.613
N6215 X22.57 Y48.713
N6220 X22.251 Y48.788
N6225 X21.929 Y48.835
N6230 X21.789 Y48.845
N6235 X21.425 Y48.836
N6240 X21.068 Y48.761
N6245 X20.731 Y48.624
N6250 X20.424 Y48.427
N6255 X20.158 Y48.178
N6260 X19.941 Y47.885
N6265 X19.781 Y47.558
N6270 X19.683 Y47.207
N6275 X19.65 Y46.844
N6280 Y44.561
N6285 G3 X19.908 Y43.837 Z-2.722 I1.269 J0.044 F800.
N6290 X20.963 Y43.336 Z-2.6 I1.011 J0.769 F2201.28
N6295 X21.292 Y43.391 I-0.043 J1.269
N6300 G1 X24.05 Y44.238
N6305 X24.453 Y44.362 Z-2.642
N6310 G3 X25.092 Y44.807 Z-2.722 I-0.373 J1.214
N6315 X25.35 Y45.531 Z-2.8 I-1.011 J0.769 F800.
N6320 G1 Y47.814 F2201.28
N6325 X25.343 Y47.964
N6330 X25.313 Y48.175
N6335 X25.264 Y48.396
N6340 X25.191 Y48.634
N6345 X25.094 Y48.879
N6350 X24.971 Y49.126
N6355 X24.821 Y49.377
N6360 X24.65 Y49.616
N6365 X24.448 Y49.856
N6370 X24.231 Y50.075
N6375 X23.997 Y50.276
N6380 X23.737 Y50.466
N6385 X23.474 Y50.627
N6390 X23.178 Y50.776
N6395 X22.885 Y50.896
N6400 X22.57 Y50.996
N6405 X22.25 Y51.071
N6410 X21.929 Y51.118
N6415 X21.789 Y51.128
N6420 X21.425 Y51.119
N6425 X21.068 Y51.044
N6430 X20.731 Y50.907
N6435 X20.424 Y50.71
N6440 X20.158 Y50.461
N6445 X19.941 Y50.168
N6450 X19.781 Y49.841
N6455 X19.683 Y49.49
N6460 X19.65 Y49.127
N6465 Y46.844
N6470 G3 X19.908 Y46.12 Z-2.722 I1.269 J0.044 F800.
N6475 X20.963 Y45.619 Z-2.6 I1.011 J0.769 F2201.28
N6480 X21.292 Y45.674 I-0.043 J1.269
N6485 G1 X24.05 Y46.521
N6490 X24.453 Y46.645 Z-2.642
N6495 G3 X25.092 Y47.09 Z-2.722 I-0.373 J1.214
N6500 X25.35 Y47.814 Z-2.8 I-1.011 J0.769 F800.
N6505 G1 Y50.097 F2201.28
N6510 X25.343 Y50.247
N6515 X25.313 Y50.458
N6520 X25.264 Y50.679
N6525 X25.191 Y50.917
N6530 X25.093 Y51.162
N6535 X24.971 Y51.409
N6540 X24.821 Y51.66
N6545 X24.65 Y51.899
N6550 X24.448 Y52.139
N6555 X24.231 Y52.358
N6560 X23.997 Y52.559
N6565 X23.737 Y52.749
N6570 X23.474 Y52.91
N6575 X23.178 Y53.059
N6580 X22.885 Y53.179
N6585 X22.57 Y53.279
N6590 X22.25 Y53.353
N6595 X21.929 Y53.401
N6600 X21.789 Y53.411
N6605 X21.425 Y53.402
N6610 X21.068 Y53.327
N6615 X20.731 Y53.19
N6620 X20.424 Y52.993
N6625 X20.158 Y52.744
N6630 X19.941 Y52.451
N6635 X19.781 Y52.124
N6640 X19.683 Y51.773
N6645 X19.65 Y51.41
N6650 Y49.127
N6655 G3 X19.908 Y48.403 Z-2.722 I1.269 J0.044 F800.
N6660 X20.963 Y47.902 Z-2.6 I1.011 J0.769 F2201.28
N6665 X21.292 Y47.957 I-0.043 J1.269
N6670 G1 X24.05 Y48.804
N6675 X24.453 Y48.928 Z-2.642
N6680 G3 X25.092 Y49.373 Z-2.722 I-0.373 J1.214
N6685 X25.35 Y50.097 Z-2.8 I-1.011 J0.769 F800.
N6690 G1 Y52.38 F2201.28
N6695 X25.343 Y52.53
N6700 X25.313 Y52.741
N6705 X25.264 Y52.962
N6710 X25.191 Y53.2
N6715 X25.093 Y53.445
N6720 X24.971 Y53.692
N6725 X24.821 Y53.943
N6730 X24.65 Y54.182
N6735 X24.448 Y54.422
N6740 X24.231 Y54.641
N6745 X23.997 Y54.842
N6750 X23.737 Y55.032
N6755 X23.474 Y55.193
N6760 X23.178 Y55.342
N6765 X22.885 Y55.462
N6770 X22.57 Y55.562
N6775 X22.25 Y55.636
N6780 X21.929 Y55.684
N6785 X21.789 Y55.694
N6790 X21.425 Y55.685
N6795 X21.068 Y55.61
N6800 X20.731 Y55.472
N6805 X20.424 Y55.276
N6810 X20.158 Y55.027
N6815 X19.941 Y54.734
N6820 X19.781 Y54.407
N6825 X19.683 Y54.056
N6830 X19.65 Y53.693
N6835 Y51.41
N6840 G3 X19.908 Y50.686 Z-2.722 I1.269 J0.044 F800.
N6845 X20.963 Y50.185 Z-2.6 I1.011 J0.769 F2201.28
N6850 X21.292 Y50.24 I-0.043 J1.269
N6855 G1 X24.05 Y51.087
N6860 X24.453 Y51.211 Z-2.642
N6865 G3 X25.092 Y51.656 Z-2.722 I-0.373 J1.214
N6870 X25.35 Y52.38 Z-2.8 I-1.011 J0.769 F800.
N6875 G1 Y54.663 F2201.28
N6880 X25.343 Y54.813
N6885 X25.313 Y55.024
N6890 X25.264 Y55.245
N6895 X25.191 Y55.483
N6900 X25.093 Y55.728
N6905 X24.971 Y55.975
N6910 X24.821 Y56.226
N6915 X24.65 Y56.465
N6920 X24.448 Y56.705
N6925 X24.231 Y56.924
N6930 X23.997 Y57.125
N6935 X23.736 Y57.315
N6940 X23.474 Y57.476
N6945 X23.178 Y57.625
N6950 X22.885 Y57.745
N6955 X22.57 Y57.845
N6960 X22.25 Y57.919
N6965 X21.928 Y57.967
N6970 X21.789 Y57.977
N6975 X21.425 Y57.968
N6980 X21.068 Y57.893
N6985 X20.731 Y57.755
N6990 X20.424 Y57.559
N6995 X20.158 Y57.31
N7000 X19.941 Y57.017
N7005 X19.781 Y56.69
N7010 X19.683 Y56.339
N7015 X19.65 Y55.976
N7020 Y53.693
N7025 G3 X19.908 Y52.969 Z-2.722 I1.269 J0.044 F800.
N7030 X20.963 Y52.468 Z-2.6 I1.011 J0.769 F2201.28
N7035 X21.292 Y52.523 I-0.043 J1.269
N7040 G1 X24.05 Y53.37
N7045 X24.453 Y53.494 Z-2.642
N7050 G3 X25.092 Y53.939 Z-2.722 I-0.373 J1.214
N7055 X25.35 Y54.663 Z-2.8 I-1.011 J0.769 F800.
N7060 G1 Y56.946 F2201.28
N7065 X25.343 Y57.096
N7070 X25.313 Y57.307
N7075 X25.264 Y57.528
N7080 X25.191 Y57.766
N7085 X25.093 Y58.011
N7090 X24.971 Y58.258
N7095 X24.821 Y58.509
N7100 X24.65 Y58.748
N7105 X24.448 Y58.988
N7110 X24.231 Y59.207
N7115 X23.997 Y59.408
N7120 X23.736 Y59.598
N7125 X23.474 Y59.758
N7130 X23.178 Y59.908
N7135 X22.885 Y60.028
N7140 X22.57 Y60.128
N7145 X22.25 Y60.202
N7150 X21.928 Y60.25
N7155 X21.789 Y60.259
N7160 X21.425 Y60.251
N7165 X21.068 Y60.176
N7170 X20.731 Y60.038
N7175 X20.424 Y59.842
N7180 X20.158 Y59.593
N7185 X19.941 Y59.3
N7190 X19.781 Y58.973
N7195 X19.683 Y58.622
N7200 X19.65 Y58.259
N7205 Y55.976
N7210 G3 X19.908 Y55.252 Z-2.722 I1.269 J0.044 F800.
N7215 X20.963 Y54.751 Z-2.6 I1.011 J0.769 F2201.28
N7220 X21.292 Y54.806 I-0.043 J1.269
N7225 G1 X24.05 Y55.653
N7230 X24.453 Y55.777 Z-2.642
N7235 G3 X25.092 Y56.222 Z-2.722 I-0.373 J1.214
N7240 X25.35 Y56.946 Z-2.8 I-1.011 J0.769 F800.
N7245 G1 Y59.229 F2201.28
N7250 X25.343 Y59.379
N7255 X25.333 Y59.529
N7260 X25.314 Y59.678
N7265 X25.287 Y59.825
N7270 X25.253 Y59.971
N7275 X25.211 Y60.115
N7280 X25.162 Y60.257
N7285 X25.106 Y60.396
N7290 X25.045 Y60.533
N7295 X24.977 Y60.667
N7300 X24.904 Y60.798
N7305 X24.825 Y60.926
N7310 X24.742 Y61.05
N7315 X24.653 Y61.171
N7320 X24.559 Y61.288
N7325 X24.462 Y61.402
N7330 X24.359 Y61.512
N7335 X24.253 Y61.618
N7340 X24.142 Y61.719
N7345 X24.028 Y61.816
N7350 X23.91 Y61.909
N7355 X23.789 Y61.997
N7360 X23.664 Y62.081
N7365 X23.537 Y62.16
N7370 X23.406 Y62.234
N7375 X23.273 Y62.303
N7380 X23.138 Y62.367
N7385 X23. Y62.426
N7390 X22.86 Y62.48
N7395 X22.718 Y62.529
N7400 X22.575 Y62.573
N7405 X22.43 Y62.612
N7410 X22.284 Y62.645
N7415 X22.136 Y62.674
N7420 X21.988 Y62.696
N7425 X21.839 Y62.714
N7430 X21.69 Y62.726
N7435 X21.34 Y62.712
N7440 X20.999 Y62.635
N7445 X20.677 Y62.498
N7450 X20.385 Y62.306
N7455 X20.132 Y62.065
N7460 X19.927 Y61.782
N7465 X19.775 Y61.468
N7470 X19.681 Y61.131
N7475 X19.65 Y60.782
N7480 Y58.259
N7485 G3 X19.908 Y57.534 Z-2.722 I1.269 J0.044 F800.
N7490 X20.963 Y57.034 Z-2.6 I1.011 J0.769 F2201.28
N7495 X21.292 Y57.089 I-0.043 J1.269
N7500 G1 X24.05 Y57.936
N7505 X24.453 Y58.059 Z-2.642
N7510 G3 X25.092 Y58.505 Z-2.722 I-0.373 J1.214
N7515 X25.35 Y59.229 Z-2.8 I-1.011 J0.769 F800.
N7520 G1 Y70.815 F2201.28
N7525 X25.353 Y71.196
N7530 X25.39 Y71.576
N7535 G0 Z5.
N7540 X16.3 Y78.073
N7545 Z-0.26
N7550 G1 Z-1.53 F800.
N7555 X16.302 Y78.065 Z-1.672
N7560 X16.31 Y78.042 Z-1.813
N7565 X16.322 Y78.005 Z-1.949
N7570 X16.34 Y77.953 Z-2.081
N7575 X16.362 Y77.888 Z-2.206
N7580 X16.388 Y77.81 Z-2.322
N7585 X16.418 Y77.72 Z-2.428
N7590 X16.452 Y77.619 Z-2.523
N7595 X16.489 Y77.509 Z-2.605
N7600 X16.529 Y77.391 Z-2.674
N7605 X16.571 Y77.267 Z-2.729
N7610 X16.615 Y77.137 Z-2.768
N7615 X16.659 Y77.004 Z-2.792
N7620 X16.705 Y76.869 Z-2.8
N7625 G3 X17.132 Y76.21 I1.5 J0.505
N7630 G1 X17.211 Y76.142 F2201.28
N7635 X17.512 Y75.88
N7640 X17.639 Y75.762
N7645 X17.893 Y75.504
N7650 X17.998 Y75.381
N7655 X18.569 Y74.62
N7660 X18.653 Y74.496
N7665 X18.804 Y74.24
N7670 X18.999 Y73.859
N7675 X19.033 Y73.791
N7680 X19.166 Y73.479
N7685 X19.31 Y73.098
N7690 X19.413 Y72.757
N7695 X19.424 Y72.718
N7700 X19.51 Y72.337
N7705 X19.572 Y71.957
N7710 X19.61 Y71.576
N7715 X19.645 Y71.196
N7720 X19.649 Y70.435
N7725 X19.65 Y69.674
N7730 Y60.782
N7735 G3 X19.911 Y60.055 I1.269 J0.044 F800.
N7740 G1 X19.997 Y59.942 Z-2.792
N7745 X20.083 Y59.83 Z-2.768
N7750 X20.166 Y59.722 Z-2.729
N7755 X20.246 Y59.617 Z-2.674
N7760 X20.321 Y59.518 Z-2.605
N7765 X20.392 Y59.426 Z-2.523
N7770 X20.457 Y59.342 Z-2.428
N7775 X20.514 Y59.266 Z-2.322
N7780 X20.564 Y59.201 Z-2.206
N7785 X20.606 Y59.146 Z-2.081
N7790 X20.639 Y59.103 Z-1.949
N7795 X20.663 Y59.072 Z-1.813
N7800 X20.678 Y59.053 Z-1.672
N7805 X20.683 Y59.046 Z-1.53
N7810 G0 Z5.
N7815 X67.888 Y78.227
N7820 Z-0.26
N7825 G1 Z-1.53 F800.
N7830 X67.891 Y78.22 Z-1.672
N7835 X67.9 Y78.198 Z-1.813
N7840 X67.915 Y78.161 Z-1.949
N7845 X67.936 Y78.111 Z-2.081
N7850 X67.962 Y78.047 Z-2.206
N7855 X67.994 Y77.971 Z-2.322
N7860 X68.03 Y77.883 Z-2.428
N7865 X68.07 Y77.785 Z-2.523
N7870 X68.114 Y77.678 Z-2.605
N7875 X68.162 Y77.562 Z-2.674
N7880 X68.212 Y77.441 Z-2.729
N7885 X68.264 Y77.314 Z-2.768
N7890 X68.317 Y77.184 Z-2.792
N7895 X68.372 Y77.053 Z-2.8
N7900 G3 X68.842 Y76.424 I1.463 J0.603
N7905 G1 X69.222 Y76.138 F2201.28
N7910 X69.602 Y75.799
N7915 X69.982 Y75.404
N7920 X70.003 Y75.381
N7925 X70.289 Y75.001
N7930 X70.571 Y74.62
N7935 X70.743 Y74.337
N7940 X70.799 Y74.24
N7945 X70.911 Y74.031
N7950 X71.096 Y73.725
N7955 X71.343 Y73.382
N7960 X71.672 Y72.995
N7965 X72.071 Y72.595
N7970 X72.518 Y72.214
N7975 X72.986 Y71.875
N7980 X73.479 Y71.577
N7985 X73.966 Y71.332
N7990 X74.487 Y71.121
N7995 X74.996 Y70.961
N8000 X75.521 Y70.842
N8005 X75.914 Y70.818
N8010 X76.306 Y70.859
N8015 X76.685 Y70.964
N8020 X77.042 Y71.13
N8025 X77.367 Y71.352
N8030 X77.652 Y71.625
N8035 X77.887 Y71.941
N8040 X78.067 Y72.291
N8045 X78.187 Y72.667
N8050 G3 X78.098 Y73.431 Z-2.722 I-1.247 J0.242 F800.
N8055 X77.354 Y74.11 Z-2.618 I-1.158 J-0.522 F2201.28
N8060 G1 X77.187 Y74.167 Z-2.6
N8065 X72.463 Y75.794
N8070 G3 X71.487 Y75.731 I-0.413 J-1.201
N8075 X70.796 Y74.791 Z-2.722 I0.563 J-1.138
N8080 X70.911 Y74.031 Z-2.8 I1.254 J-0.198 F800.
N8085 G1 X71.003 Y73.859 F2201.28
N8090 X71.123 Y73.561
N8095 X71.296 Y73.098
N8100 X71.411 Y72.718
N8105 X71.503 Y72.321
N8110 X71.572 Y71.957
N8115 X71.578 Y71.894
N8120 X71.605 Y71.712
N8125 X71.666 Y71.452
N8130 X71.751 Y71.187
N8135 X71.871 Y70.897
N8140 X72.023 Y70.596
N8145 X72.206 Y70.299
N8150 X72.409 Y70.021
N8155 X72.646 Y69.747
N8160 X72.893 Y69.503
N8165 X73.177 Y69.265
N8170 X73.465 Y69.06
N8175 X73.789 Y68.867
N8180 X74.112 Y68.708
N8185 X74.466 Y68.568
N8190 X74.818 Y68.46
N8195 X75.191 Y68.378
N8200 X75.563 Y68.327
N8205 X75.723 Y68.318
N8210 X76.105 Y68.332
N8215 X76.479 Y68.414
N8220 X76.832 Y68.561
N8225 X77.152 Y68.77
N8230 X77.43 Y69.033
N8235 X77.656 Y69.341
N8240 X77.823 Y69.685
N8245 X77.926 Y70.054
N8250 X77.96 Y70.435
N8255 Y70.815
N8260 G3 X77.702 Y71.54 Z-2.722 I-1.269 J-0.044 F800.
N8265 X77.07 Y71.983 Z-2.643 I-1.011 J-0.769 F2201.28
N8270 G1 X76.661 Y72.111 Z-2.6
N8275 X73.225 Y73.187
N8280 G3 X72.763 Y73.243 I-0.38 J-1.212
N8285 X71.763 Y72.64 Z-2.722 I0.083 J-1.267
N8290 X71.578 Y71.894 Z-2.8 I1.082 J-0.665 F800.
N8295 G1 X71.61 Y71.576 F2201.28
N8300 X71.645 Y71.196
N8305 X71.649 Y70.435
N8310 X71.65 Y69.674
N8315 X71.664 Y69.391
N8320 X71.694 Y69.162
N8325 X71.746 Y68.918
N8330 X71.822 Y68.666
N8335 X71.925 Y68.401
N8340 X72.059 Y68.125
N8345 X72.221 Y67.85
N8350 X72.414 Y67.575
N8355 X72.628 Y67.317
N8360 X72.879 Y67.06
N8365 X73.138 Y66.834
N8370 X73.423 Y66.623
N8375 X73.724 Y66.435
N8380 X74.034 Y66.276
N8385 X74.37 Y66.135
N8390 X74.699 Y66.028
N8395 X75.059 Y65.941
N8400 X75.406 Y65.887
N8405 X75.773 Y65.86
N8410 X76.153 Y65.895
N8415 X76.522 Y65.996
N8420 X76.867 Y66.159
N8425 X77.18 Y66.379
N8430 X77.449 Y66.65
N8435 X77.668 Y66.963
N8440 X77.828 Y67.31
N8445 X77.927 Y67.679
N8450 X77.96 Y68.06
N8455 Y70.435
N8460 G3 X77.702 Y71.159 Z-2.722 I-1.269 J-0.044 F800.
N8465 X76.648 Y71.66 Z-2.6 I-1.011 J-0.769 F2201.28
N8470 G1 X76.543 Y71.652
N8475 X76.44 Y71.635
N8480 X72.958 Y70.933
N8485 X72.668 Y70.874 Z-2.63
N8490 G3 X71.908 Y70.398 Z-2.722 I0.251 J-1.245
N8495 X71.65 Y69.674 Z-2.8 I1.011 J-0.769 F800.
N8500 G1 Y67.182 F2201.28
N8505 X71.663 Y66.921
N8510 X71.692 Y66.697
N8515 X71.745 Y66.452
N8520 X71.821 Y66.198
N8525 X71.922 Y65.938
N8530 X72.053 Y65.668
N8535 X72.216 Y65.392
N8540 X72.407 Y65.119
N8545 X72.625 Y64.856
N8550 X72.859 Y64.617
N8555 X73.125 Y64.385
N8560 X73.396 Y64.184
N8565 X73.702 Y63.994
N8570 X74.007 Y63.837
N8575 X74.341 Y63.697
N8580 X74.676 Y63.588
N8585 X75.025 Y63.504
N8590 X75.382 Y63.448
N8595 X75.738 Y63.421
N8600 X75.906 Y63.422
N8605 X76.263 Y63.456
N8610 X76.609 Y63.55
N8615 X76.934 Y63.703
N8620 X77.227 Y63.91
N8625 X77.48 Y64.164
N8630 X77.685 Y64.459
N8635 X77.836 Y64.784
N8640 X77.929 Y65.131
N8645 X77.96 Y65.488
N8650 Y68.06
N8655 G3 X77.702 Y68.784 Z-2.722 I-1.269 J-0.044 F800.
N8660 X76.648 Y69.285 Z-2.6 I-1.011 J-0.769 F2201.28
N8665 G1 X76.525 Y69.274
N8670 X76.403 Y69.252
N8675 X72.956 Y68.45
N8680 X72.631 Y68.374 Z-2.633
N8685 G3 X71.908 Y67.906 Z-2.722 I0.288 J-1.237
N8690 X71.65 Y67.182 Z-2.8 I1.011 J-0.769 F800.
N8695 G1 Y64.727 F2201.28
N8700 X71.663 Y64.468
N8705 X71.692 Y64.247
N8710 X71.744 Y64.004
N8715 X71.82 Y63.751
N8720 X71.92 Y63.493
N8725 X72.05 Y63.225
N8730 X72.212 Y62.951
N8735 X72.403 Y62.679
N8740 X72.622 Y62.414
N8745 X72.863 Y62.168
N8750 X73.139 Y61.927
N8755 X73.418 Y61.721
N8760 X73.729 Y61.527
N8765 X74.041 Y61.366
N8770 X74.377 Y61.226
N8775 X74.716 Y61.115
N8780 X75.067 Y61.031
N8785 X75.425 Y60.975
N8790 X75.781 Y60.948
N8795 X76.16 Y60.983
N8800 X76.527 Y61.084
N8805 X76.871 Y61.246
N8810 X77.182 Y61.465
N8815 X77.451 Y61.735
N8820 X77.669 Y62.048
N8825 X77.829 Y62.393
N8830 X77.927 Y62.761
N8835 X77.96 Y63.14
N8840 Y65.488
N8845 G3 X77.702 Y66.213 Z-2.722 I-1.269 J-0.044 F800.
N8850 X76.648 Y66.713 Z-2.6 I-1.011 J-0.769 F2201.28
N8855 G1 X76.543 Y66.705
N8860 X76.44 Y66.689
N8865 X72.958 Y65.987
N8870 X72.668 Y65.928 Z-2.63
N8875 G3 X71.908 Y65.452 Z-2.722 I0.251 J-1.245
N8880 X71.65 Y64.727 Z-2.8 I1.011 J-0.769 F800.
N8885 G1 Y62.235 F2201.28
N8890 X71.661 Y62.016
N8895 X71.69 Y61.791
N8900 X71.743 Y61.545
N8905 X71.819 Y61.29
N8910 X71.921 Y61.03
N8915 X72.053 Y60.758
N8920 X72.216 Y60.481
N8925 X72.408 Y60.208
N8930 X72.626 Y59.944
N8935 X72.86 Y59.705
N8940 X73.127 Y59.472
N8945 X73.398 Y59.272
N8950 X73.704 Y59.081
N8955 X74.01 Y58.923
N8960 X74.343 Y58.784
N8965 X74.679 Y58.674
N8970 X75.028 Y58.591
N8975 X75.385 Y58.535
N8980 X75.741 Y58.508
N8985 X75.939 Y58.509
N8990 X76.334 Y58.55
N8995 X76.713 Y58.667
N9000 X77.063 Y58.856
N9005 X77.369 Y59.109
N9010 X77.62 Y59.416
N9015 X77.807 Y59.767
N9020 X77.921 Y60.147
N9025 X77.96 Y60.542
N9030 Y63.14
N9035 G3 X77.702 Y63.865 Z-2.722 I-1.269 J-0.044 F800.
N9040 X76.648 Y64.365 Z-2.6 I-1.011 J-0.769 F2201.28
N9045 X76.395 Y64.331 I0.043 J-1.269
N9050 G1 X72.956 Y63.506
N9055 X72.623 Y63.426 Z-2.634
N9060 G3 X71.908 Y62.96 Z-2.722 I0.296 J-1.235
N9065 X71.65 Y62.235 Z-2.8 I1.011 J-0.769 F800.
N9070 G1 Y59.781 F2201.28
N9075 X71.661 Y59.557
N9080 X71.69 Y59.335
N9085 X71.742 Y59.092
N9090 X71.818 Y58.839
N9095 X71.919 Y58.581
N9100 X72.049 Y58.313
N9105 X72.211 Y58.038
N9110 X72.402 Y57.766
N9115 X72.622 Y57.501
N9120 X72.863 Y57.253
N9125 X73.142 Y57.01
N9130 X73.427 Y56.799
N9135 X73.731 Y56.61
N9140 X74.056 Y56.442
N9145 X74.377 Y56.308
N9150 X74.731 Y56.193
N9155 X75.075 Y56.11
N9160 X75.434 Y56.054
N9165 X75.798 Y56.027
N9170 X76.174 Y56.062
N9175 X76.538 Y56.161
N9180 X76.88 Y56.322
N9185 X77.188 Y56.54
N9190 X77.455 Y56.808
N9195 X77.671 Y57.118
N9200 X77.83 Y57.461
N9205 X77.927 Y57.826
N9210 X77.96 Y58.202
N9215 Y60.542
N9220 G3 X77.702 Y61.266 Z-2.722 I-1.269 J-0.044 F800.
N9225 X76.648 Y61.767 Z-2.6 I-1.011 J-0.769 F2201.28
N9230 G1 X76.543 Y61.759
N9235 X76.44 Y61.743
N9240 X72.958 Y61.04
N9245 X72.668 Y60.982 Z-2.63
N9250 G3 X71.908 Y60.505 Z-2.722 I0.251 J-1.245
N9255 X71.65 Y59.781 Z-2.8 I1.011 J-0.769 F800.
N9260 G1 Y57.289 F2201.28
N9265 X71.659 Y57.1
N9270 X71.689 Y56.874
N9275 X71.742 Y56.628
N9280 X71.818 Y56.373
N9285 X71.92 Y56.111
N9290 X72.052 Y55.839
N9295 X72.215 Y55.562
N9300 X72.408 Y55.288
N9305 X72.628 Y55.022
N9310 X72.863 Y54.782
N9315 X73.131 Y54.548
N9320 X73.402 Y54.347
N9325 X73.709 Y54.156
N9330 X74.015 Y53.998
N9335 X74.349 Y53.859
N9340 X74.685 Y53.749
N9345 X75.034 Y53.665
N9350 X75.391 Y53.61
N9355 X75.747 Y53.583
N9360 X76.116 Y53.585
N9365 X76.484 Y53.652
N9370 X76.833 Y53.785
N9375 X77.152 Y53.98
N9380 X77.429 Y54.231
N9385 X77.655 Y54.529
N9390 X77.823 Y54.863
N9395 X77.926 Y55.223
N9400 X77.96 Y55.595
N9405 Y58.202
N9410 G3 X77.702 Y58.926 Z-2.722 I-1.269 J-0.044 F800.
N9415 X76.648 Y59.427 Z-2.6 I-1.011 J-0.769 F2201.28
N9420 X76.392 Y59.392 I0.043 J-1.269
N9425 G1 X72.956 Y58.56
N9430 X72.62 Y58.479 Z-2.635
N9435 G3 X71.908 Y58.013 Z-2.722 I0.299 J-1.234
N9440 X71.65 Y57.289 Z-2.8 I1.011 J-0.769 F800.
N9445 G1 Y54.835 F2201.28
N9450 X71.66 Y54.636
N9455 X71.689 Y54.413
N9460 X71.741 Y54.17
N9465 X71.817 Y53.916
N9470 X71.918 Y53.657
N9475 X72.048 Y53.389
N9480 X72.21 Y53.113
N9485 X72.402 Y52.841
N9490 X72.623 Y52.575
N9495 X72.879 Y52.312
N9500 X73.141 Y52.083
N9505 X73.439 Y51.863
N9510 X73.738 Y51.677
N9515 X74.061 Y51.51
N9520 X74.394 Y51.371
N9525 X74.731 Y51.261
N9530 X75.089 Y51.175
N9535 X75.435 Y51.121
N9540 X75.806 Y51.093
N9545 X76.18 Y51.128
N9550 X76.543 Y51.227
N9555 X76.884 Y51.388
N9560 X77.191 Y51.605
N9565 X77.457 Y51.872
N9570 X77.672 Y52.18
N9575 X77.83 Y52.522
N9580 X77.927 Y52.885
N9585 X77.96 Y53.26
N9590 Y55.595
N9595 G3 X77.702 Y56.319 Z-2.722 I-1.269 J-0.044 F800.
N9600 X76.648 Y56.82 Z-2.6 I-1.011 J-0.769 F2201.28
N9605 G1 X76.543 Y56.812
N9610 X76.44 Y56.796
N9615 X72.958 Y56.094
N9620 X72.668 Y56.035 Z-2.63
N9625 G3 X71.908 Y55.559 Z-2.722 I0.251 J-1.245
N9630 X71.65 Y54.835 Z-2.8 I1.011 J-0.769 F800.
N9635 G1 Y52.342 F2201.28
N9640 X71.659 Y52.171
N9645 X71.688 Y51.945
N9650 X71.741 Y51.697
N9655 X71.818 Y51.441
N9660 X71.92 Y51.18
N9665 X72.052 Y50.906
N9670 X72.216 Y50.629
N9675 X72.408 Y50.355
N9680 X72.629 Y50.089
N9685 X72.864 Y49.848
N9690 X73.132 Y49.614
N9695 X73.404 Y49.412
N9700 X73.712 Y49.221
N9705 X74.018 Y49.063
N9710 X74.352 Y48.924
N9715 X74.688 Y48.814
N9720 X75.037 Y48.73
N9725 X75.395 Y48.674
N9730 X75.75 Y48.648
N9735 X76.134 Y48.684
N9740 X76.507 Y48.785
N9745 X76.856 Y48.95
N9750 X77.171 Y49.172
N9755 X77.444 Y49.446
N9760 X77.664 Y49.763
N9765 X77.827 Y50.113
N9770 X77.927 Y50.486
N9775 X77.96 Y50.871
N9780 Y53.26
N9785 G3 X77.702 Y53.985 Z-2.722 I-1.269 J-0.044 F800.
N9790 X76.648 Y54.485 Z-2.6 I-1.011 J-0.769 F2201.28
N9795 X76.391 Y54.45 I0.043 J-1.269
N9800 G1 X72.956 Y53.614
N9805 X72.619 Y53.532 Z-2.635
N9810 G3 X71.908 Y53.067 Z-2.722 I0.3 J-1.234
N9815 X71.65 Y52.342 Z-2.8 I1.011 J-0.769 F800.
N9820 G1 Y49.888 F2201.28
N9825 X71.659 Y49.702
N9830 X71.689 Y49.479
N9835 X71.741 Y49.236
N9840 X71.817 Y48.982
N9845 X71.918 Y48.723
N9850 X72.048 Y48.454
N9855 X72.21 Y48.178
N9860 X72.402 Y47.906
N9865 X72.618 Y47.645
N9870 X72.851 Y47.406
N9875 X73.116 Y47.175
N9880 X73.386 Y46.975
N9885 X73.692 Y46.785
N9890 X73.996 Y46.628
N9895 X74.33 Y46.489
N9900 X74.665 Y46.379
N9905 X75.014 Y46.295
N9910 X75.372 Y46.24
N9915 X75.727 Y46.213
N9920 X75.82 Y46.214
N9925 X76.192 Y46.248
N9930 X76.553 Y46.347
N9935 X76.891 Y46.506
N9940 X77.196 Y46.722
N9945 X77.46 Y46.987
N9950 X77.674 Y47.293
N9955 X77.831 Y47.632
N9960 X77.928 Y47.994
N9965 X77.96 Y48.366
N9970 Y50.871
N9975 G3 X77.702 Y51.595 Z-2.722 I-1.269 J-0.044 F800.
N9980 X76.648 Y52.096 Z-2.6 I-1.011 J-0.769 F2201.28
N9985 X76.371 Y52.056 I0.043 J-1.269
N9990 G1 X72.954 Y51.165
N9995 X72.599 Y51.073 Z-2.637
N10000 G3 X71.908 Y50.613 Z-2.722 I0.32 J-1.229
N10005 X71.65 Y49.888 Z-2.8 I1.011 J-0.769 F800.
N10010 G1 Y47.396 F2201.28
N10015 X71.658 Y47.246
N10020 X71.688 Y47.024
N10025 X71.741 Y46.782
N10030 X71.818 Y46.528
N10035 X71.92 Y46.269
N10040 X72.051 Y46.002
N10045 X72.214 Y45.728
N10050 X72.407 Y45.456
N10055 X72.626 Y45.194
N10060 X72.864 Y44.952
N10065 X73.135 Y44.718
N10070 X73.41 Y44.516
N10075 X73.72 Y44.325
N10080 X74.028 Y44.168
N10085 X74.365 Y44.028
N10090 X74.702 Y43.92
N10095 X75.054 Y43.837
N10100 X75.412 Y43.783
N10105 X75.769 Y43.758
N10110 X76.151 Y43.795
N10115 X76.52 Y43.897
N10120 X76.866 Y44.062
N10125 X77.179 Y44.283
N10130 X77.449 Y44.556
N10135 X77.667 Y44.871
N10140 X77.828 Y45.219
N10145 X77.927 Y45.589
N10150 X77.96 Y45.971
N10155 Y48.366
N10160 G3 X77.702 Y49.091 Z-2.722 I-1.269 J-0.044 F800.
N10165 X76.648 Y49.591 Z-2.6 I-1.011 J-0.769 F2201.28
N10170 X76.375 Y49.552 I0.043 J-1.269
N10175 G1 X72.954 Y48.672
N10180 X72.603 Y48.581 Z-2.636
N10185 G3 X71.908 Y48.12 Z-2.722 I0.316 J-1.23
N10190 X71.65 Y47.396 Z-2.8 I1.011 J-0.769 F800.
N10195 G1 Y45.113 F2201.28
N10200 X71.665 Y44.809
N10205 X71.694 Y44.586
N10210 X71.746 Y44.343
N10215 X71.822 Y44.091
N10220 X71.923 Y43.832
N10225 X72.053 Y43.563
N10230 X72.215 Y43.288
N10235 X72.406 Y43.017
N10240 X72.624 Y42.754
N10245 X72.856 Y42.516
N10250 X73.122 Y42.284
N10255 X73.392 Y42.084
N10260 X73.697 Y41.894
N10265 X74.003 Y41.737
N10270 X74.335 Y41.598
N10275 X74.671 Y41.488
N10280 X75.019 Y41.405
N10285 X75.378 Y41.349
N10290 X75.732 Y41.322
N10295 X75.875 Y41.323
N10300 X76.238 Y41.357
N10305 X76.589 Y41.453
N10310 X76.919 Y41.608
N10315 X77.216 Y41.818
N10320 X77.473 Y42.076
N10325 X77.681 Y42.375
N10330 X77.835 Y42.705
N10335 X77.929 Y43.057
N10340 X77.96 Y43.42
N10345 Y45.971
N10350 G3 X77.702 Y46.695 Z-2.722 I-1.269 J-0.044 F800.
N10355 X76.648 Y47.196 Z-2.6 I-1.011 J-0.769 F2201.28
N10360 G1 X76.528 Y47.186
N10365 X76.409 Y47.165
N10370 X72.957 Y46.38
N10375 X72.638 Y46.307 Z-2.633
N10380 G3 X71.908 Y45.837 Z-2.722 I0.282 J-1.238
N10385 X71.65 Y45.113 Z-2.8 I1.011 J-0.769 F800.
N10390 G1 Y42.659 F2201.28
N10395 X71.665 Y42.366
N10400 X71.694 Y42.144
N10405 X71.745 Y41.902
N10410 X71.821 Y41.65
N10415 X71.921 Y41.392
N10420 X72.051 Y41.125
N10425 X72.213 Y40.851
N10430 X72.403 Y40.579
N10435 X72.622 Y40.316
N10440 X72.861 Y40.071
N10445 X73.135 Y39.832
N10450 X73.412 Y39.627
N10455 X73.722 Y39.434
N10460 X74.033 Y39.274
N10465 X74.368 Y39.133
N10470 X74.707 Y39.023
N10475 X75.057 Y38.939
N10480 X75.415 Y38.883
N10485 X75.77 Y38.856
N10490 X76.151 Y38.892
N10495 X76.52 Y38.993
N10500 X76.866 Y39.156
N10505 X77.179 Y39.376
N10510 X77.448 Y39.648
N10515 X77.667 Y39.961
N10520 X77.828 Y40.308
N10525 X77.927 Y40.678
N10530 X77.96 Y41.059
N10535 Y43.42
N10540 G3 X77.702 Y44.144 Z-2.722 I-1.269 J-0.044 F800.
N10545 X76.648 Y44.645 Z-2.6 I-1.011 J-0.769 F2201.28
N10550 G1 X76.543 Y44.637
N10555 X76.44 Y44.62
N10560 X72.958 Y43.918
N10565 X72.668 Y43.859 Z-2.63
N10570 G3 X71.908 Y43.383 Z-2.722 I0.251 J-1.245
N10575 X71.65 Y42.659 Z-2.8 I1.011 J-0.769 F800.
N10580 G1 Y40.166 F2201.28
N10585 X71.662 Y39.919
N10590 X71.692 Y39.695
N10595 X71.744 Y39.45
N10600 X71.82 Y39.195
N10605 X71.922 Y38.935
N10610 X72.053 Y38.665
N10615 X72.215 Y38.389
N10620 X72.407 Y38.116
N10625 X72.625 Y37.853
N10630 X72.859 Y37.614
N10635 X73.125 Y37.382
N10640 X73.395 Y37.182
N10645 X73.701 Y36.991
N10650 X74.006 Y36.834
N10655 X74.34 Y36.694
N10660 X74.675 Y36.585
N10665 X75.024 Y36.501
N10670 X75.381 Y36.445
N10675 X75.737 Y36.419
N10680 X75.919 Y36.42
N10685 X76.274 Y36.453
N10690 X76.618 Y36.547
N10695 X76.94 Y36.699
N10700 X77.232 Y36.904
N10705 X77.483 Y37.157
N10710 X77.687 Y37.45
N10715 X77.837 Y37.773
N10720 X77.929 Y38.118
N10725 X77.96 Y38.473
N10730 Y41.059
N10735 G3 X77.702 Y41.783 Z-2.722 I-1.269 J-0.044 F800.
N10740 X76.648 Y42.284 Z-2.6 I-1.011 J-0.769 F2201.28
N10745 X76.398 Y42.25 I0.043 J-1.269
N10750 G1 X72.956 Y41.436
N10755 X72.627 Y41.358 Z-2.634
N10760 G3 X71.908 Y40.891 Z-2.722 I0.292 J-1.236
N10765 X71.65 Y40.166 Z-2.8 I1.011 J-0.769 F800.
N10770 G1 Y37.712 F2201.28
N10775 X71.662 Y37.466
N10780 X71.691 Y37.244
N10785 X71.743 Y37.001
N10790 X71.819 Y36.748
N10795 X71.92 Y36.49
N10800 X72.049 Y36.223
N10805 X72.211 Y35.948
N10810 X72.402 Y35.676
N10815 X72.622 Y35.411
N10820 X72.863 Y35.164
N10825 X73.14 Y34.923
N10830 X73.42 Y34.716
N10835 X73.731 Y34.522
N10840 X74.044 Y34.36
N10845 X74.38 Y34.22
N10850 X74.72 Y34.109
N10855 X75.071 Y34.025
N10860 X75.429 Y33.969
N10865 X75.785 Y33.942
N10870 X76.163 Y33.977
N10875 X76.53 Y34.077
N10880 X76.873 Y34.239
N10885 X77.184 Y34.459
N10890 X77.452 Y34.728
N10895 X77.669 Y35.04
N10900 X77.829 Y35.384
N10905 X77.927 Y35.752
N10910 X77.96 Y36.13
N10915 Y38.473
N10920 G3 X77.702 Y39.198 Z-2.722 I-1.269 J-0.044 F800.
N10925 X76.648 Y39.698 Z-2.6 I-1.011 J-0.769 F2201.28
N10930 G1 X76.543 Y39.69
N10935 X76.44 Y39.674
N10940 X72.958 Y38.971
N10945 X72.668 Y38.913 Z-2.63
N10950 G3 X71.908 Y38.437 Z-2.722 I0.251 J-1.245
N10955 X71.65 Y37.712 Z-2.8 I1.011 J-0.769 F800.
N10960 G1 Y35.22 F2201.28
N10965 X71.66 Y35.012
N10970 X71.69 Y34.787
N10975 X71.743 Y34.541
N10980 X71.819 Y34.286
N10985 X71.921 Y34.025
N10990 X72.052 Y33.753
N10995 X72.216 Y33.476
N11000 X72.408 Y33.202
N11005 X72.627 Y32.938
N11010 X72.861 Y32.698
N11015 X73.128 Y32.465
N11020 X73.399 Y32.265
N11025 X73.706 Y32.074
N11030 X74.011 Y31.917
N11035 X74.345 Y31.777
N11040 X74.68 Y31.667
N11045 X75.03 Y31.584
N11050 X75.387 Y31.528
N11055 X75.742 Y31.501
N11060 X75.947 Y31.503
N11065 X76.341 Y31.543
N11070 X76.719 Y31.66
N11075 X77.067 Y31.848
N11080 X77.371 Y32.099
N11085 X77.621 Y32.406
N11090 X77.807 Y32.755
N11095 X77.922 Y33.133
N11100 X77.96 Y33.527
N11105 Y36.13
N11110 G3 X77.702 Y36.855 Z-2.722 I-1.269 J-0.044 F800.
N11115 X76.648 Y37.355 Z-2.6 I-1.011 J-0.769 F2201.28
N11120 X76.393 Y37.32 I0.043 J-1.269
N11125 G1 X72.956 Y36.491
N11130 X72.621 Y36.41 Z-2.635
N11135 G3 X71.908 Y35.944 Z-2.722 I0.298 J-1.235
N11140 X71.65 Y35.22 Z-2.8 I1.011 J-0.769 F800.
N11145 G1 Y32.766 F2201.28
N11150 X71.661 Y32.552
N11155 X71.69 Y32.329
N11160 X71.742 Y32.086
N11165 X71.818 Y31.833
N11170 X71.918 Y31.574
N11175 X72.049 Y31.306
N11180 X72.21 Y31.031
N11185 X72.401 Y30.759
N11190 X72.622 Y30.494
N11195 X72.864 Y30.245
N11200 X73.143 Y30.002
N11205 X73.429 Y29.791
N11210 X73.733 Y29.602
N11215 X74.058 Y29.434
N11220 X74.379 Y29.299
N11225 X74.734 Y29.184
N11230 X75.078 Y29.101
N11235 X75.437 Y29.045
N11240 X75.8 Y29.018
N11245 X76.176 Y29.053
N11250 X76.54 Y29.152
N11255 X76.881 Y29.313
N11260 X77.189 Y29.531
N11265 X77.455 Y29.798
N11270 X77.671 Y30.108
N11275 X77.83 Y30.45
N11280 X77.927 Y30.814
N11285 X77.96 Y31.19
N11290 Y33.527
N11295 G3 X77.702 Y34.251 Z-2.722 I-1.269 J-0.044 F800.
N11300 X76.648 Y34.752 Z-2.6 I-1.011 J-0.769 F2201.28
N11305 G1 X76.543 Y34.744
N11310 X76.44 Y34.727
N11315 X72.958 Y34.025
N11320 X72.668 Y33.966 Z-2.63
N11325 G3 X71.908 Y33.49 Z-2.722 I0.251 J-1.245
N11330 X71.65 Y32.766 Z-2.8 I1.011 J-0.769 F800.
N11335 G1 Y30.274 F2201.28
N11340 X71.659 Y30.093
N11345 X71.689 Y29.867
N11350 X71.741 Y29.62
N11355 X71.818 Y29.365
N11360 X71.92 Y29.103
N11365 X72.052 Y28.831
N11370 X72.215 Y28.553
N11375 X72.408 Y28.279
N11380 X72.628 Y28.013
N11385 X72.863 Y27.773
N11390 X73.131 Y27.539
N11395 X73.403 Y27.338
N11400 X73.71 Y27.147
N11405 X74.016 Y26.989
N11410 X74.35 Y26.849
N11415 X74.686 Y26.74
N11420 X75.035 Y26.656
N11425 X75.393 Y26.6
N11430 X75.748 Y26.573
N11435 X76.117 Y26.576
N11440 X76.485 Y26.642
N11445 X76.834 Y26.775
N11450 X77.153 Y26.971
N11455 X77.43 Y27.221
N11460 X77.656 Y27.519
N11465 X77.823 Y27.853
N11470 X77.926 Y28.212
N11475 X77.96 Y28.584
N11480 Y31.19
N11485 G3 X77.702 Y31.915 Z-2.722 I-1.269 J-0.044 F800.
N11490 X76.648 Y32.415 Z-2.6 I-1.011 J-0.769 F2201.28
N11495 X76.391 Y32.38 I0.043 J-1.269
N11500 G1 X72.956 Y31.545
N11505 X72.619 Y31.463 Z-2.635
N11510 G3 X71.908 Y30.998 Z-2.722 I0.3 J-1.234
N11515 X71.65 Y30.274 Z-2.8 I1.011 J-0.769 F800.
N11520 G1 Y27.819 F2201.28
N11525 X71.66 Y27.627
N11530 X71.689 Y27.404
N11535 X71.741 Y27.16
N11540 X71.817 Y26.907
N11545 X71.918 Y26.648
N11550 X72.048 Y26.379
N11555 X72.21 Y26.104
N11560 X72.401 Y25.832
N11565 X72.623 Y25.565
N11570 X72.879 Y25.303
N11575 X73.141 Y25.074
N11580 X73.439 Y24.854
N11585 X73.739 Y24.667
N11590 X74.062 Y24.5
N11595 X74.395 Y24.361
N11600 X74.731 Y24.251
N11605 X75.09 Y24.165
N11610 X75.435 Y24.111
N11615 X75.806 Y24.084
N11620 X76.181 Y24.118
N11625 X76.544 Y24.218
N11630 X76.884 Y24.378
N11635 X77.191 Y24.595
N11640 X77.457 Y24.862
N11645 X77.672 Y25.17
N11650 X77.83 Y25.512
N11655 X77.927 Y25.875
N11660 X77.96 Y26.25
N11665 Y28.584
N11670 G3 X77.702 Y29.309 Z-2.722 I-1.269 J-0.044 F800.
N11675 X76.648 Y29.809 Z-2.6 I-1.011 J-0.769 F2201.28
N11680 G1 X76.543 Y29.801
N11685 X76.438 Y29.785
N11690 X72.958 Y29.079
N11695 X72.667 Y29.02 Z-2.63
N11700 G3 X71.908 Y28.544 Z-2.722 I0.252 J-1.245
N11705 X71.65 Y27.819 Z-2.8 I1.011 J-0.769 F800.
N11710 G1 Y25.327 F2201.28
N11715 X71.658 Y25.162
N11720 X71.688 Y24.935
N11725 X71.741 Y24.688
N11730 X71.818 Y24.432
N11735 X71.919 Y24.17
N11740 X72.052 Y23.896
N11745 X72.216 Y23.619
N11750 X72.408 Y23.345
N11755 X72.629 Y23.079
N11760 X72.864 Y22.838
N11765 X73.132 Y22.604
N11770 X73.404 Y22.403
N11775 X73.712 Y22.211
N11780 X74.018 Y22.053
N11785 X74.352 Y21.914
N11790 X74.688 Y21.804
N11795 X75.037 Y21.72
N11800 X75.395 Y21.664
N11805 X75.75 Y21.638
N11810 X76.134 Y21.674
N11815 X76.507 Y21.775
N11820 X76.856 Y21.94
N11825 X77.171 Y22.162
N11830 X77.444 Y22.436
N11835 X77.664 Y22.753
N11840 X77.827 Y23.103
N11845 X77.927 Y23.476
N11850 X77.96 Y23.861
N11855 Y26.25
N11860 G3 X77.702 Y26.975 Z-2.722 I-1.269 J-0.044 F800.
N11865 X76.648 Y27.475 Z-2.6 I-1.011 J-0.769 F2201.28
N11870 X76.389 Y27.439 I0.043 J-1.269
N11875 G1 X72.955 Y26.599
N11880 X72.617 Y26.516 Z-2.635
N11885 G3 X71.908 Y26.052 Z-2.722 I0.302 J-1.234
N11890 X71.65 Y25.327 Z-2.8 I1.011 J-0.769 F800.
N11895 G1 Y22.873 F2201.28
N11900 X71.659 Y22.693
N11905 X71.688 Y22.47
N11910 X71.74 Y22.226
N11915 X71.816 Y21.972
N11920 X71.917 Y21.713
N11925 X72.048 Y21.444
N11930 X72.21 Y21.168
N11935 X72.401 Y20.896
N11940 X72.618 Y20.635
N11945 X72.851 Y20.396
N11950 X73.116 Y20.165
N11955 X73.386 Y19.965
N11960 X73.692 Y19.775
N11965 X73.996 Y19.618
N11970 X74.33 Y19.479
N11975 X74.665 Y19.369
N11980 X75.014 Y19.285
N11985 X75.372 Y19.23
N11990 X75.727 Y19.203
N11995 X75.825 Y19.204
N12000 X76.196 Y19.238
N12005 X76.556 Y19.336
N12010 X76.894 Y19.495
N12015 X77.198 Y19.71
N12020 X77.461 Y19.975
N12025 X77.675 Y20.281
N12030 X77.832 Y20.619
N12035 X77.928 Y20.979
N12040 X77.96 Y21.351
N12045 Y23.861
N12050 G3 X77.702 Y24.585 Z-2.722 I-1.269 J-0.044 F800.
N12055 X76.648 Y25.086 Z-2.6 I-1.011 J-0.769 F2201.28
N12060 X76.369 Y25.045 I0.043 J-1.269
N12065 G1 X72.954 Y24.151
N12070 X72.597 Y24.057 Z-2.637
N12075 G3 X71.908 Y23.597 Z-2.722 I0.322 J-1.229
N12080 X71.65 Y22.873 Z-2.8 I1.011 J-0.769 F800.
N12085 G1 Y20.381 F2201.28
N12090 X71.658 Y20.231
N12095 X71.688 Y20.008
N12100 X71.742 Y19.766
N12105 X71.819 Y19.511
N12110 X71.922 Y19.252
N12115 X72.054 Y18.986
N12120 X72.218 Y18.711
N12125 X72.411 Y18.439
N12130 X72.631 Y18.178
N12135 X72.87 Y17.936
N12140 X73.142 Y17.701
N12145 X73.418 Y17.5
N12150 X73.728 Y17.309
N12155 X74.037 Y17.153
N12160 X74.375 Y17.014
N12165 X74.712 Y16.906
N12170 X75.065 Y16.824
N12175 X75.422 Y16.771
N12180 X75.78 Y16.746
N12185 X76.16 Y16.784
N12190 X76.528 Y16.886
N12195 X76.872 Y17.05
N12200 X77.183 Y17.272
N12205 X77.451 Y17.543
N12210 X77.669 Y17.857
N12215 X77.829 Y18.203
N12220 X77.927 Y18.572
N12225 X77.96 Y18.952
N12230 Y21.351
N12235 G3 X77.702 Y22.075 Z-2.722 I-1.269 J-0.044 F800.
N12240 X76.648 Y22.576 Z-2.6 I-1.011 J-0.769 F2201.28
N12245 X76.375 Y22.537 I0.043 J-1.269
N12250 G1 X72.954 Y21.657
N12255 X72.603 Y21.566 Z-2.636
N12260 G3 X71.908 Y21.105 Z-2.722 I0.316 J-1.23
N12265 X71.65 Y20.381 Z-2.8 I1.011 J-0.769 F800.
N12270 G1 Y18.098 F2201.28
N12275 X71.665 Y17.798
N12280 X71.694 Y17.576
N12285 X71.746 Y17.332
N12290 X71.822 Y17.08
N12295 X71.922 Y16.821
N12300 X72.054 Y16.551
N12305 X72.215 Y16.277
N12310 X72.405 Y16.006
N12315 X72.624 Y15.742
N12320 X72.857 Y15.504
N12325 X73.123 Y15.271
N12330 X73.394 Y15.071
N12335 X73.699 Y14.881
N12340 X74.005 Y14.723
N12345 X74.337 Y14.584
N12350 X74.674 Y14.475
N12355 X75.022 Y14.391
N12360 X75.38 Y14.335
N12365 X75.734 Y14.309
N12370 X75.877 Y14.31
N12375 X76.24 Y14.343
N12380 X76.591 Y14.439
N12385 X76.92 Y14.594
N12390 X77.217 Y14.804
N12395 X77.473 Y15.062
N12400 X77.682 Y15.361
N12405 X77.835 Y15.69
N12410 X77.929 Y16.042
N12415 X77.96 Y16.404
N12420 Y18.952
N12425 G3 X77.702 Y19.677 Z-2.722 I-1.269 J-0.044 F800.
N12430 X76.648 Y20.177 Z-2.6 I-1.011 J-0.769 F2201.28
N12435 G1 X76.528 Y20.168
N12440 X76.41 Y20.147
N12445 X72.957 Y19.364
N12450 X72.639 Y19.292 Z-2.633
N12455 G3 X71.908 Y18.822 Z-2.722 I0.281 J-1.239
N12460 X71.65 Y18.098 Z-2.8 I1.011 J-0.769 F800.
N12465 G1 Y15.643 F2201.28
N12470 X71.665 Y15.354
N12475 X71.694 Y15.132
N12480 X71.745 Y14.89
N12485 X71.821 Y14.637
N12490 X71.921 Y14.379
N12495 X72.051 Y14.112
N12500 X72.213 Y13.838
N12505 X72.403 Y13.566
N12510 X72.622 Y13.302
N12515 X72.862 Y13.057
N12520 X73.135 Y12.818
N12525 X73.412 Y12.614
N12530 X73.723 Y12.42
N12535 X74.033 Y12.26
N12540 X74.369 Y12.12
N12545 X74.707 Y12.009
N12550 X75.058 Y11.925
N12555 X75.416 Y11.869
N12560 X75.771 Y11.843
N12565 X76.152 Y11.878
N12570 X76.521 Y11.979
N12575 X76.867 Y12.142
N12580 X77.179 Y12.362
N12585 X77.449 Y12.634
N12590 X77.667 Y12.947
N12595 X77.828 Y13.294
N12600 X77.927 Y13.664
N12605 X77.96 Y14.044
N12610 Y16.404
N12615 G3 X77.702 Y17.129 Z-2.722 I-1.269 J-0.044 F800.
N12620 X76.648 Y17.629 Z-2.6 I-1.011 J-0.769 F2201.28
N12625 G1 X76.543 Y17.622
N12630 X76.44 Y17.605
N12635 X72.958 Y16.903
N12640 X72.668 Y16.844 Z-2.63
N12645 G3 X71.908 Y16.368 Z-2.722 I0.251 J-1.245
N12650 X71.65 Y15.643 Z-2.8 I1.011 J-0.769 F800.
N12655 G1 Y13.151 F2201.28
N12660 X71.662 Y12.905
N12665 X71.671 Y12.756
N12670 X71.688 Y12.607
N12675 X71.712 Y12.459
N12680 X71.744 Y12.312
N12685 X71.783 Y12.167
N12690 X71.829 Y12.024
N12695 X71.88 Y11.883
N12700 X71.938 Y11.745
N12705 X72.001 Y11.609
N12710 X72.07 Y11.475
N12715 X72.144 Y11.345
N12720 X72.222 Y11.217
N12725 X72.305 Y11.092
N12730 X72.393 Y10.971
N12735 X72.485 Y10.852
N12740 X72.581 Y10.737
N12745 X72.681 Y10.625
N12750 X72.785 Y10.517
N12755 X72.893 Y10.413
N12760 X73.005 Y10.313
N12765 X73.119 Y10.216
N12770 X73.237 Y10.123
N12775 X73.359 Y10.035
N12780 X73.483 Y9.951
N12785 X73.61 Y9.871
N12790 X73.739 Y9.795
N12795 X73.871 Y9.724
N12800 X74.006 Y9.658
N12805 X74.142 Y9.596
N12810 X74.281 Y9.538
N12815 X74.421 Y9.485
N12820 X74.563 Y9.437
N12825 X74.707 Y9.394
N12830 X74.852 Y9.355
N12835 X74.998 Y9.322
N12840 X75.145 Y9.293
N12845 X75.293 Y9.268
N12850 X75.442 Y9.249
N12855 X75.591 Y9.235
N12860 X75.741 Y9.225
N12865 X75.891 Y9.221
N12870 X76.25 Y9.252
N12875 X76.599 Y9.345
N12880 X76.926 Y9.498
N12885 X77.221 Y9.705
N12890 X77.476 Y9.96
N12895 X77.683 Y10.255
N12900 X77.835 Y10.582
N12905 X77.929 Y10.931
N12910 X77.96 Y11.29
N12915 Y14.044
N12920 G3 X77.702 Y14.769 Z-2.722 I-1.269 J-0.044 F800.
N12925 X76.648 Y15.269 Z-2.6 I-1.011 J-0.769 F2201.28
N12930 X76.398 Y15.236 I0.043 J-1.269
N12935 G1 X72.956 Y14.421
N12940 X72.627 Y14.343 Z-2.634
N12945 G3 X71.908 Y13.876 Z-2.722 I0.293 J-1.236
N12950 X71.65 Y13.151 Z-2.8 I1.011 J-0.769 F800.
N12955 G1 Y1.946 F2201.28
N12960 X71.649 Y1.565
N12965 X71.645 Y0.804
N12970 X71.61 Y0.424
N12975 G3 X71.802 Y-0.325 I1.268 J-0.074 F800.
N12980 G1 X71.877 Y-0.446 Z-2.792
N12985 X71.952 Y-0.565 Z-2.768
N12990 X72.024 Y-0.68 Z-2.729
N12995 X72.094 Y-0.792 Z-2.674
N13000 X72.161 Y-0.898 Z-2.605
N13005 X72.222 Y-0.996 Z-2.523
N13010 X72.279 Y-1.086 Z-2.428
N13015 X72.329 Y-1.166 Z-2.322
N13020 X72.373 Y-1.236 Z-2.206
N13025 X72.409 Y-1.295 Z-2.081
N13030 X72.438 Y-1.341 Z-1.949
N13035 X72.459 Y-1.374 Z-1.813
N13040 X72.472 Y-1.394 Z-1.672
N13045 X72.476 Y-1.401 Z-1.53
N13050 G0 Z5.
N13055 X81.527 Y-6.157
N13060 Z-0.26
N13065 G1 Z-1.53 F800.
N13070 X81.524 Y-6.15 Z-1.672
N13075 X81.516 Y-6.127 Z-1.813
N13080 X81.502 Y-6.09 Z-1.949
N13085 X81.483 Y-6.039 Z-2.081
N13090 X81.458 Y-5.975 Z-2.206
N13095 X81.429 Y-5.898 Z-2.322
N13100 X81.396 Y-5.809 Z-2.428
N13105 X81.358 Y-5.71 Z-2.523
N13110 X81.317 Y-5.601 Z-2.605
N13115 X81.273 Y-5.484 Z-2.674
N13120 X81.227 Y-5.361 Z-2.729
N13125 X81.179 Y-5.233 Z-2.768
N13130 X81.129 Y-5.102 Z-2.792
N13135 X81.079 Y-4.969 Z-2.8
N13140 G3 X80.628 Y-4.326 I-1.481 J-0.558
N13145 G1 X80.399 Y-4.142 F2201.28
N13150 X80.248 Y-4.018
N13155 X79.968 Y-3.762
N13160 X79.868 Y-3.662
N13165 X79.61 Y-3.381
N13170 X79.488 Y-3.233
N13175 X79.3 Y-3.001
N13180 X79.107 Y-2.734
N13185 X79.032 Y-2.62
N13190 X78.619 Y-1.859
N13195 X78.443 Y-1.479
N13200 X78.347 Y-1.232
N13205 X78.3 Y-1.098
N13210 X78.199 Y-0.718
N13215 X78.111 Y-0.337
N13220 X78.038 Y0.043
N13225 X77.967 Y0.762
N13230 X77.965 Y0.804
N13235 X77.961 Y1.565
N13240 X77.96 Y2.326
N13245 Y11.29
N13250 X77.943 Y11.397 Z-2.792 F800.
N13255 X77.926 Y11.502 Z-2.77
N13260 X77.91 Y11.603 Z-2.733
N13265 X77.873 Y11.687 Z-2.685
N13270 X77.839 Y11.764 Z-2.625
N13275 X77.809 Y11.834 Z-2.555
N13280 X77.783 Y11.894 Z-2.475
N13285 X77.753 Y11.938 Z-2.392
N13290 X77.73 Y11.972 Z-2.303
N13295 X77.713 Y11.997 Z-2.209
N13300 X77.703 Y12.012 Z-2.113
N13305 X77.699 Y12.018 Z-2.015
N13310 G0 Z5.
N13315 X-1.246 Y-7.674
N13320 Z1.84
N13325 G1 Z0.57 F800.
N13330 X-1.244 Y-7.667 Z0.428
N13335 X-1.238 Y-7.643 Z0.287
N13340 X-1.228 Y-7.605 Z0.151
N13345 X-1.215 Y-7.552 Z0.019
N13350 X-1.198 Y-7.486 Z-0.106
N13355 X-1.177 Y-7.406 Z-0.222
N13360 X-1.154 Y-7.314 Z-0.328
N13365 X-1.127 Y-7.211 Z-0.423
N13370 X-1.098 Y-7.099 Z-0.505
N13375 X-1.068 Y-6.978 Z-0.574
N13380 X-1.035 Y-6.85 Z-0.629
N13385 X-1.001 Y-6.718 Z-0.668
N13390 X-0.966 Y-6.582 Z-0.692
N13395 X-0.931 Y-6.444 Z-0.7
N13400 G3 X0.064 Y0.47 I-31.409 J8.045
N13405 G1 X0.063 Y0.8 F2201.28
N13410 X0.171 Y1.762
N13415 X0.183 Y2.152
N13420 X0.119 Y3.473
N13425 X-0.026 Y4.788
N13430 X-0.141 Y6.105
N13435 X-0.231 Y7.424
N13440 X-0.303 Y8.745
N13445 X-0.359 Y10.066
N13450 X-0.404 Y11.387
N13455 X-0.439 Y12.709
N13460 X-0.467 Y14.031
N13465 X-0.489 Y15.353
N13470 X-0.506 Y16.676
N13475 X-0.52 Y17.998
N13480 X-0.53 Y19.32
N13485 X-0.539 Y20.643
N13490 X-0.545 Y21.965
N13495 X-0.551 Y23.287
N13500 X-0.558 Y25.932
N13505 X-0.563 Y28.577
N13510 X-0.566 Y32.544
N13515 X-0.569 Y40.478
N13520 X-0.57 Y51.056
N13525 Y52.379
N13530 X-0.524 Y53.003
N13535 X-0.478 Y53.699
N13540 X-0.433 Y54.484
N13545 X-0.387 Y55.383
N13550 X-0.341 Y56.435
N13555 X-0.293 Y57.756
N13560 X-0.098 Y59.064
N13565 X0.274 Y60.333
N13570 X0.778 Y61.556
N13575 X1.38 Y62.733
N13580 X2.057 Y63.869
N13585 X2.791 Y64.969
N13590 X3.57 Y66.038
N13595 X4.383 Y67.081
N13600 X5.251 Y68.077
N13605 X6.296 Y68.889
N13610 X6.87 Y69.216
N13615 X7.241 Y69.398
N13620 X7.552 Y69.509
N13625 X7.874 Y69.585
N13630 X8.202 Y69.624
N13635 X8.533 Y69.627
N13640 X8.862 Y69.593
N13645 X9.185 Y69.522
N13650 X9.498 Y69.416
N13655 X9.797 Y69.276
N13660 X10.079 Y69.103
N13665 X10.34 Y68.9
N13670 X11.286 Y67.976
N13675 X11.863 Y66.786
N13680 X12.324 Y65.547
N13685 X12.693 Y64.277
N13690 X12.987 Y62.988
N13695 X13.221 Y61.686
N13700 X13.406 Y60.377
N13705 X13.554 Y59.063
N13710 X13.67 Y57.746
N13715 X13.763 Y56.426
N13720 X13.836 Y55.106
N13725 X13.894 Y53.785
N13730 X13.94 Y52.464
N13735 X13.976 Y51.142
N13740 X14.005 Y49.82
N13745 X14.027 Y48.497
N13750 X14.045 Y47.175
N13755 X14.059 Y45.853
N13760 X14.071 Y44.531
N13765 X14.08 Y43.208
N13770 X14.086 Y41.886
N13775 X14.092 Y40.564
N13780 X14.1 Y37.919
N13785 X14.105 Y35.274
N13790 X14.109 Y31.307
N13795 X14.112 Y24.696
N13800 X14.113 Y7.505
N13805 X14.112 Y6.844
N13810 X14.071 Y6.516
N13815 X13.992 Y6.195
N13820 X13.766 Y5.574
N13825 X13.721 Y5.504
N13830 X13.539 Y5.228
N13835 X13.339 Y4.965
N13840 X13.11 Y4.726
N13845 X12.857 Y4.514
N13850 X12.581 Y4.332
N13855 X12.287 Y4.181
N13860 X11.978 Y4.064
N13865 X11.658 Y3.982
N13870 X11.33 Y3.936
N13875 X11. Y3.927
N13880 X10.67 Y3.955
N13885 X10.346 Y4.019
N13890 X10.031 Y4.119
N13895 X9.729 Y4.254
N13900 X9.444 Y4.421
N13905 X9.179 Y4.619
N13910 X8.215 Y5.525
N13915 X7.589 Y6.689
N13920 X7.079 Y7.909
N13925 X6.666 Y9.165
N13930 X6.331 Y10.445
N13935 X6.062 Y11.739
N13940 X5.845 Y13.044
N13945 X5.67 Y14.354
N13950 X5.53 Y15.669
N13955 X5.418 Y16.987
N13960 X5.328 Y18.306
N13965 X5.255 Y19.627
N13970 X5.198 Y20.948
N13975 X5.151 Y22.269
N13980 X5.114 Y23.591
N13985 X5.085 Y24.913
N13990 X5.061 Y26.235
N13995 X5.042 Y27.557
N14000 X5.027 Y28.88
N14005 X5.015 Y30.202
N14010 X5.005 Y31.524
N14015 X4.998 Y32.846
N14020 X4.991 Y34.169
N14025 X4.983 Y36.813
N14030 X4.977 Y39.458
N14035 X4.972 Y43.425
N14040 X4.97 Y46.07
N14045 X4.973 Y47.392
N14050 X4.993 Y48.714
N14055 X5.024 Y50.036
N14060 X5.06 Y51.358
N14065 X5.109 Y52.68
N14070 X5.174 Y53.338
N14075 X5.22 Y53.665
N14080 X5.246 Y53.828
N14085 G3 X5.105 Y54.588 I-1.26 J0.16 F800.
N14090 G1 X5.038 Y54.714 Z-0.692
N14095 X4.971 Y54.837 Z-0.668
N14100 X4.906 Y54.958 Z-0.629
N14105 X4.844 Y55.074 Z-0.574
N14110 X4.785 Y55.184 Z-0.505
N14115 X4.73 Y55.286 Z-0.423
N14120 X4.68 Y55.38 Z-0.328
N14125 X4.635 Y55.463 Z-0.222
N14130 X4.596 Y55.536 Z-0.106
N14135 X4.564 Y55.597 Z0.019
N14140 X4.538 Y55.645 Z0.151
N14145 X4.519 Y55.679 Z0.287
N14150 X4.508 Y55.7 Z0.428
N14155 X4.504 Y55.707 Z0.57
N14160 G0 Z5.
N14165 X104.755 Y-1.246
N14170 Z1.84
N14175 G1 Z0.57 F800.
N14180 X104.747 Y-1.244 Z0.428
N14185 X104.724 Y-1.238 Z0.287
N14190 X104.686 Y-1.228 Z0.151
N14195 X104.633 Y-1.215 Z0.019
N14200 X104.566 Y-1.198 Z-0.106
N14205 X104.486 Y-1.177 Z-0.222
N14210 X104.394 Y-1.154 Z-0.328
N14215 X104.291 Y-1.127 Z-0.423
N14220 X104.179 Y-1.098 Z-0.505
N14225 X104.058 Y-1.068 Z-0.574
N14230 X103.931 Y-1.035 Z-0.629
N14235 X103.798 Y-1.001 Z-0.668
N14240 X103.662 Y-0.966 Z-0.692
N14245 X103.524 Y-0.931 Z-0.7
N14250 G3 X96.61 Y0.064 I-8.045 J-31.409
N14255 G1 X96.28 Y0.063 F2201.28
N14260 X95.246 Y0.179
N14265 X94.856 Y0.192
N14270 X93.535 Y0.127
N14275 X92.221 Y-0.02
N14280 X90.903 Y-0.136
N14285 X90.574 Y-0.158
N14290 X90.243 Y-0.165
N14295 X89.914 Y-0.135
N14300 X89.59 Y-0.069
N14305 X89.275 Y0.034
N14310 X88.071 Y0.579
N14315 X87.091 Y1.467
N14320 X86.285 Y2.516
N14325 X85.631 Y3.665
N14330 X85.103 Y4.877
N14335 X84.679 Y6.129
N14340 X84.34 Y7.407
N14345 X84.069 Y8.702
N14350 X83.854 Y10.007
N14355 X83.683 Y11.318
N14360 X83.548 Y12.633
N14365 X83.441 Y13.951
N14370 X83.356 Y15.271
N14375 X83.289 Y16.592
N14380 X83.237 Y17.913
N14385 X83.195 Y19.235
N14390 X83.162 Y20.556
N14395 X83.136 Y21.879
N14400 X83.116 Y23.201
N14405 X83.1 Y24.523
N14410 X83.087 Y25.845
N14415 X83.077 Y27.168
N14420 X83.069 Y28.49
N14425 X83.063 Y29.812
N14430 X83.058 Y31.135
N14435 X83.051 Y33.779
N14440 X83.046 Y37.746
N14445 X83.043 Y41.713
N14450 X83.042 Y43.036
N14455 X83.088 Y43.663
N14460 X83.134 Y44.362
N14465 X83.18 Y45.152
N14470 X83.225 Y46.056
N14475 X83.271 Y47.116
N14480 X83.317 Y48.394
N14485 X83.355 Y49.715
N14490 X83.385 Y51.037
N14495 X83.409 Y52.36
N14500 X83.427 Y53.682
N14505 X83.442 Y55.004
N14510 X83.454 Y56.326
N14515 X83.463 Y57.649
N14520 X83.47 Y58.971
N14525 X83.476 Y60.293
N14530 X83.484 Y62.938
N14535 X83.489 Y65.583
N14540 X83.698 Y66.21
N14545 X83.739 Y66.282
N14550 X83.906 Y66.567
N14555 X84.104 Y66.832
N14560 X84.331 Y67.072
N14565 X84.583 Y67.287
N14570 X84.857 Y67.471
N14575 X85.15 Y67.624
N14580 X85.458 Y67.744
N14585 X85.778 Y67.828
N14590 X87.086 Y68.021
N14595 X88.392 Y67.817
N14600 X89.659 Y67.437
N14605 X90.88 Y66.929
N14610 X92.054 Y66.322
N14615 X93.057 Y65.46
N14620 X93.872 Y64.419
N14625 X94.53 Y63.271
N14630 X95.058 Y62.059
N14635 X95.481 Y60.806
N14640 X95.818 Y59.527
N14645 X96.086 Y58.233
N14650 X96.299 Y56.928
N14655 X96.469 Y55.616
N14660 X96.603 Y54.301
N14665 X96.71 Y52.983
N14670 X96.794 Y51.663
N14675 X96.861 Y50.342
N14680 X96.913 Y49.021
N14685 X96.955 Y47.699
N14690 X96.988 Y46.377
N14695 X97.014 Y45.055
N14700 X97.035 Y43.733
N14705 X97.051 Y42.411
N14710 X97.064 Y41.089
N14715 X97.074 Y39.766
N14720 X97.082 Y38.444
N14725 X97.089 Y37.122
N14730 X97.094 Y35.799
N14735 X97.101 Y33.155
N14740 X97.107 Y29.188
N14745 X97.111 Y23.898
N14750 X97.112 Y14.642
N14755 X97.016 Y13.323
N14760 X96.716 Y12.035
N14765 X96.593 Y11.728
N14770 X96.519 Y11.58
N14775 X96.48 Y11.508
N14780 X96.155 Y10.932
N14785 X95.961 Y10.665
N14790 X95.737 Y10.421
N14795 X95.488 Y10.203
N14800 X95.217 Y10.015
N14805 X94.926 Y9.858
N14810 X94.619 Y9.735
N14815 X94.3 Y9.646
N14820 X93.974 Y9.594
N14825 X93.644 Y9.578
N14830 X93.314 Y9.599
N14835 X92.988 Y9.656
N14840 X92.671 Y9.75
N14845 X92.367 Y9.878
N14850 X92.078 Y10.04
N14855 X91.809 Y10.232
N14860 X91.564 Y10.454
N14865 X91.344 Y10.701
N14870 X90.582 Y11.782
N14875 X90.209 Y13.05
N14880 X89.904 Y14.337
N14885 X89.654 Y15.635
N14890 X89.45 Y16.942
N14895 X89.284 Y18.254
N14900 X89.149 Y19.569
N14905 X89.039 Y20.887
N14910 X88.95 Y22.206
N14915 X88.878 Y23.527
N14920 X88.82 Y24.848
N14925 X88.773 Y26.169
N14930 X88.735 Y27.491
N14935 X88.704 Y28.813
N14940 X88.68 Y30.135
N14945 X88.66 Y31.457
N14950 X88.643 Y32.779
N14955 X88.63 Y34.102
N14960 X88.62 Y35.424
N14965 X88.612 Y36.746
N14970 X88.609 Y38.069
N14975 X88.624 Y39.391
N14980 X88.651 Y40.713
N14985 X88.684 Y42.035
N14990 X88.756 Y44.679
N14995 X88.791 Y46.001
N15000 X88.823 Y47.322
N15005 X88.853 Y48.644
N15010 X88.879 Y49.967
N15015 X88.896 Y50.958
N15020 G3 X88.647 Y51.69 I-1.27 J-0.024 F800.
N15025 G1 X88.563 Y51.804 Z-0.692
N15030 X88.479 Y51.917 Z-0.668
N15035 X88.398 Y52.027 Z-0.629
N15040 X88.32 Y52.133 Z-0.574
N15045 X88.246 Y52.233 Z-0.505
N15050 X88.176 Y52.326 Z-0.423
N15055 X88.113 Y52.412 Z-0.328
N15060 X88.057 Y52.488 Z-0.222
N15065 X88.008 Y52.554 Z-0.106
N15070 X87.967 Y52.61 Z0.019
N15075 X87.934 Y52.653 Z0.151
N15080 X87.911 Y52.685 Z0.287
N15085 X87.897 Y52.704 Z0.428
N15090 X87.892 Y52.711 Z0.57
N15095 G0 Z5.
N15100 X17.232 Y73.246
N15105 Z1.84
N15110 G1 Z0.57 F800.
N15115 X17.239 Y73.244 Z0.428
N15120 X17.263 Y73.238 Z0.287
N15125 X17.301 Y73.228 Z0.151
N15130 X17.354 Y73.215 Z0.019
N15135 X17.42 Y73.198 Z-0.106
N15140 X17.5 Y73.177 Z-0.222
N15145 X17.592 Y73.154 Z-0.328
N15150 X17.695 Y73.127 Z-0.423
N15155 X17.807 Y73.098 Z-0.505
N15160 X17.928 Y73.068 Z-0.574
N15165 X18.056 Y73.035 Z-0.629
N15170 X18.188 Y73.001 Z-0.668
N15175 X18.324 Y72.966 Z-0.692
N15180 X18.462 Y72.931 Z-0.7
N15185 G3 X25.376 Y71.937 I8.045 J31.409
N15190 G1 X25.526 F2201.28
N15195 X26.843 Y72.054
N15200 X28.161 Y72.163
N15205 X29.48 Y72.249
N15210 X30.801 Y72.317
N15215 X32.122 Y72.37
N15220 X33.444 Y72.413
N15225 X34.766 Y72.446
N15230 X36.088 Y72.472
N15235 X37.41 Y72.493
N15240 X38.732 Y72.509
N15245 X40.055 Y72.522
N15250 X41.377 Y72.532
N15255 X42.699 Y72.54
N15260 X44.021 Y72.547
N15265 X45.344 Y72.552
N15270 X47.988 Y72.559
N15275 X51.956 Y72.564
N15280 X57.245 Y72.568
N15285 X59.228
N15290 X59.557 Y72.536
N15295 X59.881 Y72.468
N15300 X61.136 Y72.051
N15305 X62.185 Y71.247
N15310 X63.051 Y70.247
N15315 X63.757 Y69.129
N15320 X64.329 Y67.937
N15325 X64.788 Y66.697
N15330 X65.156 Y65.427
N15335 X65.45 Y64.138
N15340 X65.684 Y62.836
N15345 X65.869 Y61.527
N15350 X66.017 Y60.213
N15355 X66.133 Y58.895
N15360 X66.225 Y57.576
N15365 X66.298 Y56.256
N15370 X66.356 Y54.935
N15375 X66.401 Y53.613
N15380 X66.437 Y52.292
N15385 X66.465 Y50.969
N15390 X66.487 Y49.647
N15395 X66.505 Y48.325
N15400 X66.519 Y47.003
N15405 X66.53 Y45.681
N15410 X66.538 Y44.358
N15415 X66.545 Y43.036
N15420 X66.55 Y41.714
N15425 X66.558 Y39.069
N15430 X66.562 Y36.424
N15435 X66.566 Y32.457
N15440 X66.569 Y24.523
N15445 X66.57 Y8.655
N15450 Y6.672
N15455 X66.522 Y6.344
N15460 X66.353 Y5.705
N15465 X65.764 Y4.521
N15470 X64.889 Y3.53
N15475 X63.847 Y2.716
N15480 X62.702 Y2.054
N15485 X61.493 Y1.519
N15490 X60.242 Y1.09
N15495 X58.965 Y0.746
N15500 X57.672 Y0.472
N15505 X56.367 Y0.255
N15510 X55.056 Y0.082
N15515 X53.741 Y-0.055
N15520 X52.423 Y-0.164
N15525 X51.104 Y-0.25
N15530 X49.783 Y-0.317
N15535 X48.462 Y-0.371
N15540 X47.14 Y-0.413
N15545 X45.818 Y-0.446
N15550 X44.496 Y-0.473
N15555 X43.174 Y-0.493
N15560 X41.852 Y-0.51
N15565 X40.529 Y-0.522
N15570 X39.207 Y-0.532
N15575 X37.885 Y-0.54
N15580 X37.554 Y-0.528
N15585 X37.228 Y-0.478
N15590 X36.908 Y-0.392
N15595 X35.677 Y0.091
N15600 X34.66 Y0.935
N15605 X33.822 Y1.958
N15610 X33.14 Y3.091
N15615 X32.588 Y4.293
N15620 X32.145 Y5.539
N15625 X31.791 Y6.812
N15630 X31.508 Y8.104
N15635 X31.283 Y9.407
N15640 X31.104 Y10.717
N15645 X30.962 Y12.032
N15650 X30.85 Y13.35
N15655 X30.761 Y14.669
N15660 X30.691 Y15.99
N15665 X30.636 Y17.311
N15670 X30.592 Y18.632
N15675 X30.558 Y19.954
N15680 X30.531 Y21.276
N15685 X30.509 Y22.599
N15690 X30.493 Y23.921
N15695 X30.479 Y25.243
N15700 X30.469 Y26.565
N15705 X30.461 Y27.888
N15710 X30.454 Y29.21
N15715 X30.449 Y30.532
N15720 X30.442 Y33.177
N15725 X30.436 Y37.144
N15730 X30.432 Y42.433
N15735 X30.43 Y54.334
N15740 Y59.954
N15745 X30.462 Y60.283
N15750 X30.6 Y60.93
N15755 X31.143 Y62.136
N15760 X31.985 Y63.155
N15765 X33.004 Y63.998
N15770 X34.132 Y64.688
N15775 X35.33 Y65.249
N15780 X36.572 Y65.701
N15785 X37.844 Y66.065
N15790 X39.133 Y66.356
N15795 X40.435 Y66.589
N15800 X41.744 Y66.775
N15805 X43.058 Y66.923
N15810 X44.375 Y67.04
N15815 X45.694 Y67.134
N15820 X47.015 Y67.208
N15825 X48.336 Y67.267
N15830 X49.657 Y67.313
N15835 X50.979 Y67.35
N15840 X52.301 Y67.379
N15845 X53.619 Y67.273
N15850 X54.856 Y66.806
N15855 X55.957 Y66.073
N15860 X56.908 Y65.155
N15865 X57.717 Y64.108
N15870 X58.396 Y62.974
N15875 X58.962 Y61.778
N15880 X59.429 Y60.541
N15885 X59.814 Y59.276
N15890 X60.13 Y57.992
N15895 X60.388 Y56.696
N15900 X60.599 Y55.39
N15905 X60.77 Y54.079
N15910 X60.909 Y52.764
N15915 X61.021 Y51.446
N15920 X61.112 Y50.127
N15925 X61.186 Y48.807
N15930 X61.245 Y47.486
N15935 X61.293 Y46.164
N15940 X61.332 Y44.842
N15945 X61.363 Y43.521
N15950 X61.388 Y42.198
N15955 X61.408 Y40.876
N15960 X61.424 Y39.554
N15965 X61.437 Y38.232
N15970 X61.448 Y36.909
N15975 X61.456 Y35.587
N15980 X61.463 Y34.265
N15985 X61.468 Y32.942
N15990 X61.476 Y30.298
N15995 X61.481 Y27.653
N16000 X61.485 Y23.686
N16005 X61.489 Y17.074
N16010 Y13.107
N16015 X61.193 Y11.819
N16020 X60.588 Y10.643
N16025 X59.761 Y9.611
N16030 X58.779 Y8.725
N16035 X57.689 Y7.976
N16040 X56.525 Y7.35
N16045 X55.309 Y6.829
N16050 X54.059 Y6.399
N16055 X52.785 Y6.045
N16060 X51.494 Y5.756
N16065 X50.193 Y5.519
N16070 X48.885 Y5.326
N16075 X47.572 Y5.169
N16080 X46.256 Y5.042
N16085 X44.938 Y4.939
N16090 X43.615 Y4.933
N16095 X42.353 Y5.326
N16100 X41.222 Y6.01
N16105 X40.24 Y6.897
N16110 X39.405 Y7.922
N16115 X38.704 Y9.043
N16120 X38.119 Y10.229
N16125 X37.636 Y11.46
N16130 X37.238 Y12.721
N16135 X36.911 Y14.002
N16140 X36.645 Y15.298
N16145 X36.428 Y16.602
N16150 X36.251 Y17.912
N16155 X36.108 Y19.227
N16160 X35.992 Y20.544
N16165 X35.898 Y21.863
N16170 X35.822 Y23.183
N16175 X35.761 Y24.504
N16180 X35.712 Y25.826
N16185 X35.672 Y27.148
N16190 X35.64 Y28.47
N16195 X35.614 Y29.792
N16200 X35.594 Y31.114
N16205 X35.577 Y32.436
N16210 X35.564 Y33.758
N16215 X35.553 Y35.081
N16220 X35.545 Y36.403
N16225 X35.538 Y37.725
N16230 X35.532 Y39.048
N16235 X35.524 Y41.692
N16240 X35.519 Y44.337
N16245 X35.515 Y48.304
N16250 X35.512 Y52.271
N16255 Y53.593
N16260 X35.768 Y54.89
N16265 X36.34 Y56.083
N16270 X37.142 Y57.135
N16275 X38.104 Y58.041
N16280 X39.181 Y58.809
N16285 X40.335 Y59.454
N16290 X41.543 Y59.991
N16295 X42.789 Y60.436
N16300 X44.059 Y60.803
N16305 X45.347 Y61.104
N16310 X46.646 Y61.35
N16315 X47.968 Y61.311
N16320 X49.227 Y60.907
N16325 X50.363 Y60.231
N16330 X51.357 Y59.358
N16335 X52.211 Y58.349
N16340 X52.935 Y57.242
N16345 X53.545 Y56.069
N16350 X54.054 Y54.848
N16355 X54.477 Y53.595
N16360 X54.827 Y52.32
N16365 X55.116 Y51.03
N16370 X55.353 Y49.729
N16375 X55.548 Y48.421
N16380 X55.708 Y47.108
N16385 X55.839 Y45.793
N16390 X55.945 Y44.475
N16395 X56.032 Y43.155
N16400 X56.103 Y41.835
N16405 X56.161 Y40.514
N16410 X56.208 Y39.192
N16415 X56.246 Y37.87
N16420 X56.277 Y36.548
N16425 X56.302 Y35.226
N16430 X56.323 Y33.904
N16435 X56.34 Y32.582
N16440 X56.353 Y31.259
N16445 X56.364 Y29.937
N16450 X56.373 Y28.615
N16455 X56.38 Y27.293
N16460 X56.386 Y25.97
N16465 X56.394 Y23.326
N16470 X56.4 Y20.681
N16475 X56.402 Y19.359
N16480 X56.223 Y18.048
N16485 X55.752 Y16.813
N16490 X55.044 Y15.696
N16495 X54.158 Y14.714
N16500 X53.144 Y13.866
N16505 X52.037 Y13.142
N16510 X50.865 Y12.531
N16515 X50.553 Y12.419
N16520 X49.91 Y12.267
N16525 X48.588 Y12.25
N16530 X47.335 Y12.673
N16535 X46.222 Y13.386
N16540 X45.26 Y14.294
N16545 X44.443 Y15.334
N16550 X43.758 Y16.465
N16555 X43.186 Y17.657
N16560 X42.713 Y18.892
N16565 X42.322 Y20.155
N16570 X42.002 Y21.438
N16575 X41.738 Y22.734
N16580 X41.523 Y24.039
N16585 X41.348 Y25.349
N16590 X41.205 Y26.664
N16595 X41.088 Y27.981
N16600 X40.994 Y29.3
N16605 X40.917 Y30.62
N16610 X40.855 Y31.941
N16615 X40.804 Y33.262
N16620 X40.763 Y34.584
N16625 X40.73 Y35.906
N16630 X40.703 Y37.228
N16635 X40.681 Y38.55
N16640 X40.721 Y39.21
N16645 X40.766 Y40.052
N16650 X40.81 Y41.029
N16655 X40.855 Y42.194
N16660 X40.897 Y43.516
N16665 X40.929 Y44.838
N16670 X40.955 Y46.16
N16675 X40.975 Y47.482
N16680 X41.191 Y48.787
N16685 X41.707 Y50.004
N16690 X42.083 Y50.548
N16695 X42.293 Y50.804
N16700 X42.53 Y51.034
N16705 X42.791 Y51.237
N16710 X43.073 Y51.409
N16715 X43.372 Y51.549
N16720 X43.686 Y51.654
N16725 X44.009 Y51.724
N16730 X44.338 Y51.758
N16735 X44.668 Y51.755
N16740 X44.996 Y51.715
N16745 X45.318 Y51.638
N16750 X45.629 Y51.527
N16755 X45.926 Y51.381
N16760 X46.205 Y51.203
N16765 X46.462 Y50.995
N16770 X47.391 Y50.055
N16775 X48.007 Y48.885
N16780 X48.519 Y47.665
N16785 X48.942 Y46.413
N16790 X49.291 Y45.137
N16795 X49.578 Y43.846
N16800 X49.815 Y42.545
N16805 X50.008 Y41.237
N16810 X50.167 Y39.924
N16815 X50.297 Y38.609
N16820 X50.403 Y37.29
N16825 X50.49 Y35.971
N16830 X50.561 Y34.651
N16835 X50.619 Y33.329
N16840 X50.666 Y32.008
N16845 X50.704 Y30.686
N16850 X50.736 Y29.364
N16855 X50.761 Y28.042
N16860 X50.782 Y26.72
N16865 X50.799 Y25.398
N16870 X50.794 Y25.315
N16875 X50.793 Y25.278 Z-0.699 F800.
N16880 X50.807 Y25.169 Z-0.686
N16885 X50.82 Y25.064 Z-0.658
N16890 X50.833 Y24.963 Z-0.615
N16895 X50.867 Y24.875 Z-0.558
N16900 X50.899 Y24.796 Z-0.489
N16905 X50.926 Y24.726 Z-0.408
N16910 X50.949 Y24.668 Z-0.318
N16915 X50.974 Y24.627 Z-0.224
N16920 X50.992 Y24.597 Z-0.124
N16925 X51.003 Y24.578 Z-0.02
N16930 X51.007 Y24.572 Z0.085
N16935 G0 Z5.
N16940 X-11.046 Y-9.404
N16945 Z-3.26
N16950 G1 Z-4.53 F800.
N16955 X-11.039 Y-9.4 Z-4.672
N16960 X-11.018 Y-9.387 Z-4.813
N16965 X-10.984 Y-9.367 Z-4.949
N16970 X-10.937 Y-9.34 Z-5.081
N16975 X-10.878 Y-9.304 Z-5.206
N16980 X-10.807 Y-9.262 Z-5.322
N16985 X-10.726 Y-9.214 Z-5.428
N16990 X-10.634 Y-9.16 Z-5.523
N16995 X-10.534 Y-9.101 Z-5.605
N17000 X-10.427 Y-9.037 Z-5.674
N17005 X-10.314 Y-8.97 Z-5.729
N17010 X-10.196 Y-8.901 Z-5.768
N17015 X-10.075 Y-8.829 Z-5.792
N17020 X-9.953 Y-8.757 Z-5.8
N17025 G3 X-4.361 Y-4.571 I-16.52 J27.898
N17030 G1 X-4.271 Y-4.481 F2201.28
N17035 X-3.885 Y-3.851
N17040 X-3.473 Y-3.039
N17045 X-3.038 Y-1.979
N17050 X-2.636 Y-0.72
N17055 X-2.325 Y0.566
N17060 X-2.241 Y1.016
N17065 X-2.191 Y1.492
N17070 X-2.219 Y1.969
N17075 X-2.323 Y2.436
N17080 X-2.502 Y2.88
N17085 X-2.749 Y3.29
N17090 X-3.059 Y3.654
N17095 X-3.633 Y4.229
N17100 X-3.78 Y4.377
N17105 X-3.992 Y4.609
N17110 X-4.16 Y4.817
N17115 X-4.568 Y5.37
N17120 X-4.788 Y5.751
N17125 X-4.92 Y5.981
N17130 X-4.998 Y6.131
N17135 X-5.149 Y6.512
N17140 X-5.301 Y6.908
N17145 X-5.408 Y7.273
N17150 X-5.498 Y7.653
N17155 X-5.569 Y8.034
N17160 X-5.609 Y8.414
N17165 X-5.647 Y8.795
N17170 X-5.65 Y9.175
N17175 Y62.825
N17180 X-5.647 Y63.205
N17185 X-5.609 Y63.586
N17190 X-5.569 Y63.966
N17195 X-5.498 Y64.347
N17200 X-5.408 Y64.727
N17205 X-5.301 Y65.092
N17210 X-5.149 Y65.488
N17215 X-4.998 Y65.869
N17220 X-4.92 Y66.019
N17225 X-4.788 Y66.249
N17230 X-4.568 Y66.63
N17235 X-4.54 Y66.668
N17240 X-3.809 Y67.77
N17245 X-3.005 Y68.82
N17250 X-2.006 Y69.686
N17255 X-1.504 Y70.004
N17260 X-1.323 Y70.127
N17265 X-1.152 Y70.264
N17270 X-0.991 Y70.413
N17275 G3 X-0.874 Y71.141 Z-5.722 I-0.484 J0.451 F800.
N17280 X-1.897 Y71.375 Z-5.6 I-0.602 J-0.276 F2201.28
N17285 G1 X-1.956 Y71.32
N17290 X-5.54 Y67.534
N17295 X-5.586 Y67.48
N17300 X-5.626 Y67.42
N17305 G3 X-5.242 Y66.443 Z-5.722 I0.567 J-0.341
N17310 X-4.54 Y66.668 Z-5.8 I0.183 J0.636 F800.
N17315 G1 X-4.16 Y67.183 F2201.28
N17320 X-3.992 Y67.391
N17325 X-3.78 Y67.623
N17330 X-3.253 Y68.152
N17335 X3.977 Y75.381
N17340 X4.359 Y75.762
N17345 X4.585 Y75.973
N17350 X4.785 Y76.142
N17355 X4.965 Y76.279
N17360 X5.345 Y76.539
N17365 X5.726 Y76.776
N17370 X6.106 Y76.973
N17375 X6.486 Y77.149
N17380 X7.247 Y77.41
N17385 X7.627 Y77.49
N17390 X8.007 Y77.567
N17395 X8.387 Y77.607
N17400 X8.767 Y77.634
N17405 X9.148 Y77.65
N17410 X12.57
N17415 X12.95 Y77.648
N17420 X13.71 Y77.604
N17425 X14.09 Y77.545
N17430 X14.471 Y77.474
N17435 X14.851 Y77.383
N17440 X15.173 Y77.284
N17445 X15.231 Y77.264
N17450 X15.611 Y77.115
N17455 X15.992 Y76.939
N17460 X16.058 Y76.903
N17465 X16.372 Y76.723
N17470 X16.752 Y76.468
N17475 X17.132 Y76.21
N17480 X17.283 Y76.108
N17485 X17.985 Y75.71
N17490 X18.893 Y75.288
N17495 X20.09 Y74.845
N17500 X21.363 Y74.486
N17505 X22.656 Y74.208
N17510 X23.961 Y73.992
N17515 X24.065 Y73.978
N17520 X24.51 Y73.955
N17525 X24.953 Y73.998
N17530 X25.385 Y74.107
N17535 X25.795 Y74.28
N17540 X26.175 Y74.512
N17545 X26.516 Y74.798
N17550 X26.81 Y75.132
N17555 X26.998 Y75.381
N17560 X27.788 Y76.142
N17565 X28.158 Y76.41
N17570 X28.539 Y76.669
N17575 X28.919 Y76.878
N17580 X29.299 Y77.073
N17585 X29.679 Y77.217
N17590 X30.06 Y77.345
N17595 X30.44 Y77.454
N17600 X30.82 Y77.529
N17605 X31.2 Y77.596
N17610 X31.961 Y77.646
N17615 X32.341 Y77.65
N17620 X64.659
N17625 X65.039 Y77.646
N17630 X65.8 Y77.596
N17635 X66.18 Y77.529
N17640 X66.56 Y77.454
N17645 X66.94 Y77.345
N17650 X67.321 Y77.217
N17655 X67.701 Y77.076
N17660 X68.061 Y76.903
N17665 X68.081 Y76.892
N17670 X68.461 Y76.678
N17675 X68.703 Y76.523
N17680 X68.842 Y76.424
N17685 X69.324 Y76.098
N17690 X70.03 Y75.7
N17695 X70.945 Y75.277
N17700 X72.151 Y74.833
N17705 X73.425 Y74.477
N17710 X74.718 Y74.201
N17715 X76.023 Y73.986
N17720 X76.626 Y73.909
N17725 X77.065 Y73.886
N17730 X77.502 Y73.928
N17735 X77.928 Y74.033
N17740 X78.334 Y74.201
N17745 X78.711 Y74.427
N17750 X79.05 Y74.706
N17755 X79.344 Y75.033
N17760 X79.615 Y75.381
N17765 X79.868 Y75.657
N17770 X79.975 Y75.762
N17775 X80.409 Y76.142
N17780 X80.628 Y76.323
N17785 X80.931 Y76.523
N17790 X81.566 Y76.903
N17795 X81.769 Y77.012
N17800 X82.149 Y77.177
N17805 X82.437 Y77.284
N17810 X83.29 Y77.514
N17815 X83.67 Y77.567
N17820 X84.05 Y77.618
N17825 X84.43 Y77.647
N17830 X84.811 Y77.65
N17835 X87.852
N17840 X88.233 Y77.634
N17845 X88.613 Y77.607
N17850 X88.993 Y77.567
N17855 X89.373 Y77.49
N17860 X89.753 Y77.41
N17865 X90.514 Y77.149
N17870 X90.894 Y76.973
N17875 X91.274 Y76.776
N17880 X91.655 Y76.539
N17885 X92.035 Y76.279
N17890 X93.127 Y75.534
N17895 X94.116 Y74.656
N17900 X94.929 Y73.613
N17905 X95.061 Y73.404
N17910 X95.212 Y73.208
N17915 X95.379 Y73.026
N17920 G3 X96.106 Y72.908 Z-5.722 I0.451 J0.484 F800.
N17925 X96.341 Y73.932 Z-5.6 I-0.276 J0.602 F2201.28
N17930 G1 X96.292 Y73.985
N17935 X92.914 Y77.267
N17940 X92.86 Y77.314
N17945 X92.801 Y77.356
N17950 G3 X91.819 Y76.984 Z-5.722 I-0.348 J-0.563
N17955 X92.035 Y76.279 Z-5.8 I0.634 J-0.191 F800.
N17960 G1 X92.215 Y76.142 F2201.28
N17965 X92.415 Y75.955
N17970 X93.021 Y75.381
N17975 X93.175 Y75.229
N17980 X100.019 Y68.385
N17985 X100.251 Y68.152
N17990 X100.78 Y67.614
N17995 X100.992 Y67.391
N18000 X101.16 Y67.183
N18005 X101.568 Y66.63
N18010 X101.788 Y66.249
N18015 X101.92 Y66.019
N18020 X101.998 Y65.869
N18025 X102.149 Y65.488
N18030 X102.301 Y65.092
N18035 X102.408 Y64.727
N18040 X102.498 Y64.347
N18045 X102.569 Y63.966
N18050 X102.609 Y63.586
N18055 X102.644 Y63.205
N18060 X102.649 Y62.444
N18065 X102.65 Y61.683
N18070 Y9.936
N18075 X102.649 Y9.556
N18080 X102.644 Y8.795
N18085 X102.609 Y8.414
N18090 X102.569 Y8.034
N18095 X102.498 Y7.653
N18100 X102.408 Y7.273
N18105 X102.301 Y6.908
N18110 X102.149 Y6.512
N18115 X101.999 Y6.131
N18120 X101.92 Y5.972
N18125 X101.801 Y5.751
N18130 X101.571 Y5.37
N18135 X101.304 Y4.99
N18140 X101.183 Y4.817
N18145 X100.513 Y3.677
N18150 X99.598 Y2.722
N18155 X98.532 Y1.939
N18160 X98.488 Y1.915
N18165 X98.248 Y1.769
N18170 X98.024 Y1.601
N18175 X97.816 Y1.412
N18180 G3 X97.699 Y0.684 Z-5.722 I0.484 J-0.451 F800.
N18185 X98.722 Y0.45 Z-5.6 I0.602 J0.276 F2201.28
N18190 G1 X98.775 Y0.498
N18195 X102.286 Y4.103
N18200 X102.331 Y4.154
N18205 X102.37 Y4.21
N18210 G3 X102.011 Y5.196 Z-5.722 I-0.559 J0.355
N18215 X101.304 Y4.99 Z-5.8 I-0.199 J-0.631 F800.
N18220 G1 X101.16 Y4.805 F2201.28
N18225 X100.994 Y4.609
N18230 X100.78 Y4.386
N18235 X100.251 Y3.848
N18240 X99.872 Y3.468
N18245 X93.023 Y-3.381
N18250 X92.641 Y-3.762
N18255 X92.415 Y-3.973
N18260 X92.215 Y-4.142
N18265 X92.035 Y-4.279
N18270 X91.655 Y-4.539
N18275 X91.274 Y-4.776
N18280 X90.894 Y-4.973
N18285 X90.514 Y-5.149
N18290 X89.753 Y-5.41
N18295 X89.373 Y-5.49
N18300 X88.993 Y-5.567
N18305 X88.613 Y-5.607
N18310 X88.233 Y-5.634
N18315 X87.852 Y-5.65
N18320 X84.811
N18325 X84.43 Y-5.647
N18330 X84.05 Y-5.618
N18335 X83.67 Y-5.567
N18340 X83.29 Y-5.514
N18345 X82.437 Y-5.284
N18350 X82.149 Y-5.177
N18355 X81.769 Y-5.012
N18360 X81.566 Y-4.903
N18365 X80.931 Y-4.523
N18370 X80.628 Y-4.326
N18375 X80.154 Y-4.017
N18380 X79.409 Y-3.613
N18385 X78.442 Y-3.186
N18390 X77.193 Y-2.75
N18395 X75.915 Y-2.413
N18400 X74.619 Y-2.151
N18405 X73.312 Y-1.947
N18410 X73.005 Y-1.91
N18415 X72.572 Y-1.889
N18420 X72.141 Y-1.93
N18425 X71.721 Y-2.033
N18430 X71.319 Y-2.196
N18435 X70.945 Y-2.415
N18440 X70.607 Y-2.685
N18445 X70.311 Y-3.001
N18450 X70.003 Y-3.381
N18455 X69.982 Y-3.404
N18460 X69.602 Y-3.799
N18465 X69.217 Y-4.142
N18470 X68.842 Y-4.424
N18475 X68.703 Y-4.523
N18480 X68.461 Y-4.678
N18485 X68.081 Y-4.892
N18490 X68.061 Y-4.903
N18495 X67.701 Y-5.076
N18500 X67.321 Y-5.217
N18505 X66.94 Y-5.345
N18510 X66.56 Y-5.454
N18515 X66.18 Y-5.529
N18520 X65.8 Y-5.596
N18525 X65.039 Y-5.646
N18530 X64.659 Y-5.65
N18535 X32.341
N18540 X31.961 Y-5.646
N18545 X31.2 Y-5.596
N18550 X30.82 Y-5.529
N18555 X30.44 Y-5.454
N18560 X30.06 Y-5.345
N18565 X29.679 Y-5.217
N18570 X29.299 Y-5.073
N18575 X28.919 Y-4.878
N18580 X28.539 Y-4.669
N18585 X28.158 Y-4.41
N18590 X27.544 Y-4.012
N18595 X26.797 Y-3.608
N18600 X25.826 Y-3.18
N18605 X24.577 Y-2.745
N18610 X23.298 Y-2.41
N18615 X22.002 Y-2.149
N18620 X21.024 Y-1.996
N18625 X20.585 Y-1.961
N18630 X20.146 Y-1.991
N18635 X19.716 Y-2.086
N18640 X19.304 Y-2.244
N18645 X18.921 Y-2.461
N18650 X18.574 Y-2.732
N18655 X18.271 Y-3.052
N18660 X18.003 Y-3.381
N18665 X17.893 Y-3.496
N18670 X17.635 Y-3.762
N18675 X17.512 Y-3.883
N18680 X17.216 Y-4.142
N18685 X17.132 Y-4.21
N18690 X16.703 Y-4.523
N18695 X16.372 Y-4.732
N18700 X16.06 Y-4.903
N18705 X15.992 Y-4.938
N18710 X15.611 Y-5.116
N18715 X15.231 Y-5.249
N18720 X14.851 Y-5.373
N18725 X14.471 Y-5.474
N18730 X14.09 Y-5.545
N18735 X13.71 Y-5.612
N18740 X13.33 Y-5.64
N18745 X12.95 Y-5.65
N18750 X9.148
N18755 X8.767 Y-5.634
N18760 X8.387 Y-5.607
N18765 X8.007 Y-5.567
N18770 X7.627 Y-5.49
N18775 X7.247 Y-5.41
N18780 X6.486 Y-5.149
N18785 X6.106 Y-4.973
N18790 X5.726 Y-4.776
N18795 X5.345 Y-4.539
N18800 X4.965 Y-4.279
N18805 X4.785 Y-4.142
N18810 X4.585 Y-3.973
N18815 X4.359 Y-3.762
N18820 X3.596 Y-3.001
N18825 X-3.059 Y3.654
N18830 G3 X-3.757 Y3.984 I-0.866 J-0.929 F800.
N18835 G1 X-3.898 Y4.003 Z-5.792
N18840 X-4.038 Y4.021 Z-5.768
N18845 X-4.173 Y4.039 Z-5.729
N18850 X-4.304 Y4.057 Z-5.674
N18855 X-4.427 Y4.073 Z-5.605
N18860 X-4.542 Y4.088 Z-5.523
N18865 X-4.648 Y4.102 Z-5.428
N18870 X-4.742 Y4.115 Z-5.322
N18875 X-4.823 Y4.126 Z-5.206
N18880 X-4.892 Y4.135 Z-5.081
N18885 X-4.946 Y4.142 Z-4.949
N18890 X-4.985 Y4.147 Z-4.813
N18895 X-5.008 Y4.15 Z-4.672
N18900 X-5.016 Y4.151 Z-4.53
N18905 G0 Z5.
N18910 X29.144 Y-6.196
N18915 Z-3.26
N18920 G1 Z-4.53 F800.
N18925 X29.141 Y-6.189 Z-4.672
N18930 X29.132 Y-6.167 Z-4.813
N18935 X29.116 Y-6.131 Z-4.949
N18940 X29.094 Y-6.081 Z-5.081
N18945 X29.067 Y-6.018 Z-5.206
N18950 X29.034 Y-5.942 Z-5.322
N18955 X28.996 Y-5.855 Z-5.428
N18960 X28.954 Y-5.758 Z-5.523
N18965 X28.908 Y-5.651 Z-5.605
N18970 X28.859 Y-5.537 Z-5.674
N18975 X28.806 Y-5.416 Z-5.729
N18980 X28.752 Y-5.29 Z-5.768
N18985 X28.696 Y-5.161 Z-5.792
N18990 X28.64 Y-5.031 Z-5.8
N18995 G3 X28.158 Y-4.41 I-1.452 J-0.629
N19000 G1 X27.788 Y-4.142 F2201.28
N19005 X26.998 Y-3.381
N19010 X26.711 Y-3.001
N19015 X26.429 Y-2.62
N19020 X26.257 Y-2.337
N19025 X26.201 Y-2.24
N19030 X26.09 Y-2.031
N19035 X25.919 Y-1.744
N19040 X25.672 Y-1.399
N19045 X25.354 Y-1.021
N19050 X24.99 Y-0.652
N19055 X24.591 Y-0.309
N19060 X24.173 Y-0.005
N19065 X23.741 Y0.26
N19070 X23.28 Y0.494
N19075 X22.824 Y0.681
N19080 X22.334 Y0.837
N19085 X21.858 Y0.948
N19090 X21.454 Y0.97
N19095 X21.053 Y0.916
N19100 X20.668 Y0.789
N19105 X20.314 Y0.593
N19110 X20.003 Y0.334
N19115 X19.745 Y0.022
N19120 X19.55 Y-0.333
N19125 X19.424 Y-0.718
N19130 G3 X19.482 Y-1.485 Z-5.722 I1.236 J-0.292 F800.
N19135 X20.222 Y-2.202 Z-5.615 I1.178 J0.475 F2201.28
N19140 G1 X20.364 Y-2.254 Z-5.6
N19145 X24.51 Y-3.78
N19150 G3 X25.507 Y-3.728 I0.438 J1.192
N19155 X26.202 Y-2.792 Z-5.722 I-0.558 J1.141
N19160 X26.09 Y-2.031 Z-5.8 I-1.254 J0.204 F800.
N19165 G1 X25.999 Y-1.859 F2201.28
N19170 X25.877 Y-1.561
N19175 X25.704 Y-1.098
N19180 X25.589 Y-0.718
N19185 X25.497 Y-0.321
N19190 X25.428 Y0.043
N19195 X25.425 Y0.078
N19200 X25.402 Y0.226
N19205 X25.346 Y0.462
N19210 X25.261 Y0.723
N19215 X25.15 Y0.989
N19220 X25.004 Y1.272
N19225 X24.844 Y1.531
N19230 X24.65 Y1.794
N19235 X24.438 Y2.037
N19240 X24.21 Y2.26
N19245 X23.949 Y2.477
N19250 X23.686 Y2.662
N19255 X23.388 Y2.837
N19260 X23.086 Y2.984
N19265 X22.771 Y3.107
N19270 X22.435 Y3.208
N19275 X22.108 Y3.279
N19280 X21.75 Y3.326
N19285 X21.392 Y3.312
N19290 X21.041 Y3.234
N19295 X20.711 Y3.095
N19300 X20.41 Y2.899
N19305 X20.149 Y2.653
N19310 X19.937 Y2.363
N19315 X19.779 Y2.041
N19320 X19.682 Y1.696
N19325 X19.648 Y1.339
N19330 X19.647 Y1.185
N19335 G3 X19.902 Y0.459 Z-5.722 I1.269 J0.038 F800.
N19340 X20.467 Y0.034 Z-5.65 I1.015 J0.764 F2201.28
N19345 G1 X20.931 Y-0.141 Z-5.6
N19350 X23.708 Y-1.192
N19355 G3 X24.24 Y-1.271 I0.449 J1.188
N19360 X25.24 Y-0.669 Z-5.722 I-0.083 J1.267
N19365 X25.425 Y0.078 Z-5.8 I-1.082 J0.665 F800.
N19370 G1 X25.353 Y0.804 F2201.28
N19375 X25.35 Y1.185
N19380 Y2.155
N19385 X25.338 Y2.397
N19390 X25.31 Y2.606
N19395 X25.261 Y2.835
N19400 X25.19 Y3.073
N19405 X25.095 Y3.318
N19410 X24.972 Y3.572
N19415 X24.818 Y3.833
N19420 X24.647 Y4.076
N19425 X24.452 Y4.311
N19430 X24.235 Y4.534
N19435 X24.007 Y4.733
N19440 X23.746 Y4.926
N19445 X23.484 Y5.088
N19450 X23.193 Y5.239
N19455 X22.899 Y5.362
N19460 X22.59 Y5.462
N19465 X22.269 Y5.539
N19470 X21.952 Y5.589
N19475 X21.937 Y5.59
N19480 X21.549 Y5.584
N19485 X21.168 Y5.507
N19490 X20.807 Y5.362
N19495 X20.479 Y5.153
N19500 X20.194 Y4.889
N19505 X19.962 Y4.577
N19510 X19.791 Y4.229
N19515 X19.685 Y3.855
N19520 X19.65 Y3.468
N19525 Y1.946
N19530 X19.648 Y1.339
N19535 G3 X19.903 Y0.613 Z-5.722 I1.269 J0.038 F800.
N19540 X20.954 Y0.107 Z-5.6 I1.015 J0.764 F2201.28
N19545 X21.237 Y0.147 I-0.037 J1.269
N19550 G1 X24.046 Y0.878
N19555 X24.401 Y0.97 Z-5.637
N19560 G3 X25.092 Y1.43 Z-5.722 I-0.32 J1.229
N19565 X25.35 Y2.155 Z-5.8 I-1.011 J0.769 F800.
N19570 G1 Y4.438 F2201.28
N19575 X25.337 Y4.701
N19580 X25.309 Y4.911
N19585 X25.262 Y5.131
N19590 X25.191 Y5.368
N19595 X25.096 Y5.613
N19600 X24.976 Y5.86
N19605 X24.829 Y6.109
N19610 X24.668 Y6.338
N19615 X24.473 Y6.573
N19620 X24.267 Y6.784
N19625 X24.038 Y6.984
N19630 X23.787 Y7.17
N19635 X23.53 Y7.33
N19640 X23.239 Y7.48
N19645 X22.951 Y7.601
N19650 X22.639 Y7.703
N19655 X22.32 Y7.779
N19660 X22.001 Y7.829
N19665 X21.898 Y7.836
N19670 X21.516 Y7.83
N19675 X21.141 Y7.754
N19680 X20.787 Y7.612
N19685 X20.465 Y7.407
N19690 X20.185 Y7.147
N19695 X19.957 Y6.841
N19700 X19.788 Y6.498
N19705 X19.685 Y6.131
N19710 X19.65 Y5.751
N19715 Y3.468
N19720 G3 X19.908 Y2.743 Z-5.722 I1.269 J0.044 F800.
N19725 X20.963 Y2.243 Z-5.6 I1.011 J0.769 F2201.28
N19730 X21.292 Y2.298 I-0.043 J1.269
N19735 G1 X24.05 Y3.144
N19740 X24.453 Y3.268 Z-5.642
N19745 G3 X25.092 Y3.713 Z-5.722 I-0.373 J1.214
N19750 X25.35 Y4.438 Z-5.8 I-1.011 J0.769 F800.
N19755 G1 Y6.721 F2201.28
N19760 X25.338 Y6.962
N19765 X25.311 Y7.169
N19770 X25.264 Y7.386
N19775 X25.195 Y7.619
N19780 X25.1 Y7.861
N19785 X24.981 Y8.106
N19790 X24.836 Y8.353
N19795 X24.673 Y8.585
N19800 X24.476 Y8.822
N19805 X24.267 Y9.037
N19810 X24.037 Y9.237
N19815 X23.783 Y9.425
N19820 X23.524 Y9.586
N19825 X23.232 Y9.737
N19830 X22.942 Y9.858
N19835 X22.63 Y9.96
N19840 X22.311 Y10.037
N19845 X21.991 Y10.087
N19850 X21.872 Y10.096
N19855 X21.494 Y10.089
N19860 X21.124 Y10.014
N19865 X20.774 Y9.873
N19870 X20.455 Y9.671
N19875 X20.179 Y9.414
N19880 X19.953 Y9.112
N19885 X19.787 Y8.773
N19890 X19.684 Y8.409
N19895 X19.65 Y8.034
N19900 Y5.751
N19905 G3 X19.908 Y5.026 Z-5.722 I1.269 J0.044 F800.
N19910 X20.963 Y4.526 Z-5.6 I1.011 J0.769 F2201.28
N19915 X21.292 Y4.581 I-0.043 J1.269
N19920 G1 X24.05 Y5.427
N19925 X24.453 Y5.551 Z-5.642
N19930 G3 X25.092 Y5.996 Z-5.722 I-0.373 J1.214
N19935 X25.35 Y6.721 Z-5.8 I-1.011 J0.769 F800.
N19940 G1 Y9.004 F2201.28
N19945 X25.339 Y9.215
N19950 X25.312 Y9.423
N19955 X25.266 Y9.641
N19960 X25.196 Y9.874
N19965 X25.101 Y10.117
N19970 X24.982 Y10.362
N19975 X24.836 Y10.61
N19980 X24.672 Y10.845
N19985 X24.474 Y11.083
N19990 X24.263 Y11.299
N19995 X24.032 Y11.5
N20000 X23.777 Y11.689
N20005 X23.518 Y11.85
N20010 X23.225 Y12.001
N20015 X22.934 Y12.123
N20020 X22.622 Y12.225
N20025 X22.302 Y12.302
N20030 X21.983 Y12.351
N20035 X21.853 Y12.361
N20040 X21.479 Y12.355
N20045 X21.112 Y12.281
N20050 X20.765 Y12.141
N20055 X20.449 Y11.94
N20060 X20.174 Y11.686
N20065 X19.951 Y11.386
N20070 X19.786 Y11.05
N20075 X19.684 Y10.689
N20080 X19.65 Y10.317
N20085 Y8.034
N20090 G3 X19.908 Y7.309 Z-5.722 I1.269 J0.044 F800.
N20095 X20.963 Y6.809 Z-5.6 I1.011 J0.769 F2201.28
N20100 X21.292 Y6.864 I-0.043 J1.269
N20105 G1 X24.05 Y7.71
N20110 X24.453 Y7.834 Z-5.642
N20115 G3 X25.092 Y8.279 Z-5.722 I-0.373 J1.214
N20120 X25.35 Y9.004 Z-5.8 I-1.011 J0.769 F800.
N20125 G1 Y11.287 F2201.28
N20130 X25.341 Y11.476
N20135 X25.313 Y11.684
N20140 X25.267 Y11.903
N20145 X25.196 Y12.137
N20150 X25.102 Y12.38
N20155 X24.982 Y12.626
N20160 X24.836 Y12.875
N20165 X24.67 Y13.11
N20170 X24.472 Y13.349
N20175 X24.26 Y13.567
N20180 X24.029 Y13.768
N20185 X23.772 Y13.958
N20190 X23.513 Y14.12
N20195 X23.219 Y14.271
N20200 X22.928 Y14.393
N20205 X22.616 Y14.495
N20210 X22.296 Y14.571
